; generated by Slic3r 1.1.7 on 2015-05-02 at 00:59:42

; perimeters extrusion width = 0.50mm
; infill extrusion width = 0.70mm
; solid infill extrusion width = 0.70mm
; top infill extrusion width = 0.70mm

G21 ; set units to millimeters
M107
M190 S57 ; wait for bed temperature to be reached
M104 S190 ; set temperature
G28 ; home all axes
G1 Z5 F5000 ; lift nozzle
M109 S190 ; wait for temperature to be reached
G90 ; use absolute coordinates
G92 E0
M82 ; use absolute distances for extrusion
G1 F27000.000 E-3.00000
G92 E0
G1 Z0.300 F15000.000
; changing layer
G1 X40.686 Y60.376 F15000.000
G1 E3.10000 F27000.000
G1 X41.692 Y59.831 E3.17066 F901.599
G1 X42.772 Y59.451 E3.24135
G1 X43.898 Y59.244 E3.31202
G1 X44.255 Y59.216 E3.33413
G1 X44.860 Y59.204 E3.37148
G1 X82.187 Y60.826 E5.67820
G1 X83.493 Y61.129 E5.76099 F901.599
G1 X85.426 Y62.298 E5.90044
G1 X85.724 Y62.588 E5.92611
G1 X86.974 Y64.572 E6.07091
G1 X87.085 Y64.901 E6.09235
G1 X87.334 Y66.875 E6.21521
G1 X87.085 Y68.099 E6.29231
G1 X86.974 Y68.428 E6.31375
G1 X85.724 Y70.412 E6.45853
G1 X85.426 Y70.703 E6.48424
G1 X83.493 Y71.871 E6.62366
G1 X82.784 Y72.060 E6.66898
G1 X81.460 Y72.259 E6.75166
G1 X44.258 Y73.785 E9.05040
G1 X43.123 Y73.634 E9.12109
G1 X42.026 Y73.307 E9.19177
G1 X40.993 Y72.813 E9.26243
G1 X40.053 Y72.165 E9.33295
G1 X39.222 Y71.374 E9.40380
G1 X38.527 Y70.466 E9.47436
G1 X37.981 Y69.458 E9.54514
G1 X37.602 Y68.382 E9.61554
G1 X37.394 Y67.252 E9.68649
G1 X37.365 Y66.108 E9.75717
G1 X37.516 Y64.973 E9.82784
G1 X37.601 Y64.621 E9.85022
G1 X37.843 Y63.876 E9.89857
G1 X38.337 Y62.843 E9.96924
G1 X38.525 Y62.537 E9.99144
G1 X38.987 Y61.901 E10.03996
G1 X39.776 Y61.072 E10.11064
G1 X40.050 Y60.838 E10.13282
G1 X40.625 Y60.420 E10.17674
G1 X40.947 Y60.802 F15000.000
G1 X41.884 Y60.293 E10.24256 F901.599
G1 X42.889 Y59.937 E10.30840
G1 X43.937 Y59.742 E10.37423
G1 X44.294 Y59.714 E10.39634
G1 X44.839 Y59.704 E10.42997
G1 X82.093 Y61.317 E12.73218
G1 X83.338 Y61.604 E12.81104 F901.599
G1 X85.077 Y62.656 E12.93654
G1 X85.375 Y62.946 E12.96222
G1 X86.501 Y64.732 E13.09253
G1 X86.612 Y65.061 E13.11397
G1 X86.827 Y66.935 E13.23046
G1 X86.612 Y67.939 E13.29386
G1 X86.501 Y68.268 E13.31530
G1 X85.375 Y70.054 E13.44560
G1 X85.077 Y70.344 E13.47130
G1 X83.299 Y71.409 E13.59924
G1 X82.690 Y71.569 E13.63811
G1 X81.439 Y71.759 E13.71627
G1 X44.297 Y73.286 E16.01130
G1 X43.240 Y73.147 E16.07714
G1 X42.217 Y72.845 E16.14298
G1 X41.255 Y72.386 E16.20880
G1 X40.377 Y71.784 E16.27449
G1 X39.602 Y71.049 E16.34048
G1 X38.953 Y70.204 E16.40622
G1 X38.443 Y69.266 E16.47214
G1 X38.088 Y68.265 E16.53773
G1 X37.892 Y67.213 E16.60381
G1 X37.864 Y66.147 E16.66964
G1 X38.003 Y65.090 E16.73547
G1 X38.087 Y64.738 E16.75782
G1 X38.305 Y64.067 E16.80135
G1 X38.764 Y63.105 E16.86719
G1 X38.952 Y62.798 E16.88937
G1 X39.367 Y62.226 E16.93306
G1 X40.101 Y61.452 E16.99890
G1 X40.374 Y61.219 E17.02107
G1 X40.886 Y60.846 E17.06015
G1 F27000.000 E14.06015
G92 E0
G1 X45.747 Y67.597 F15000.000
G1 E3.10000 F27000.000
G1 X45.562 Y67.755 E3.11502 F600.000
G1 X45.354 Y67.882 E3.13005
G1 X45.129 Y67.975 E3.14507
G1 X44.893 Y68.032 E3.16009
G1 X44.650 Y68.051 E3.17512
G1 X44.407 Y68.032 E3.19014
G1 X44.171 Y67.975 E3.20517
G1 X43.946 Y67.882 E3.22019
G1 X43.738 Y67.755 E3.23521
G1 X43.553 Y67.597 E3.25024
G1 X43.395 Y67.412 E3.26526
G1 X43.268 Y67.204 E3.28029
G1 X43.175 Y66.979 E3.29531
G1 X43.118 Y66.743 E3.31033
G1 X43.099 Y66.500 E3.32536
G1 X43.118 Y66.257 E3.34038
G1 X43.175 Y66.021 E3.35541
G1 X43.268 Y65.796 E3.37043
G1 X43.395 Y65.588 E3.38545
G1 X43.553 Y65.403 E3.40048
G1 X43.738 Y65.245 E3.41550
G1 X43.946 Y65.118 E3.43052
G1 X44.171 Y65.025 E3.44555
G1 X44.407 Y64.968 E3.46057
G1 X44.650 Y64.949 E3.47560
G1 X44.893 Y64.968 E3.49062
G1 X45.129 Y65.025 E3.50564 F600.000
G1 X45.354 Y65.118 E3.52067
G1 X45.562 Y65.245 E3.53569
G1 X45.747 Y65.403 E3.55072
G1 X45.905 Y65.588 E3.56574
G1 X46.032 Y65.796 E3.58076
G1 X46.125 Y66.021 E3.59579
G1 X46.182 Y66.257 E3.61081
G1 X46.201 Y66.500 E3.62583
G1 X46.182 Y66.743 E3.64086
G1 X46.125 Y66.979 E3.65588
G1 X46.032 Y67.204 E3.67091
G1 X45.905 Y67.412 E3.68593
G1 X45.795 Y67.540 E3.69632
G1 X44.899 Y64.725 F15000.000
G1 F27000.000 E0.69632
G92 E0
G1 X82.084 Y66.500 F15000.000
G1 E3.10000 F27000.000
G1 X82.019 Y66.692 E3.11250 F600.000
G1 X81.802 Y66.903 E3.13120
G1 X81.224 Y67.013 E3.16756
G1 X46.649 Y67.013 E5.30219
G1 X46.476 Y67.430 E5.33008
G1 X46.308 Y67.704 E5.34993
G1 X46.099 Y67.949 E5.36979
G1 X45.855 Y68.158 E5.38964
G1 X45.580 Y68.326 E5.40949
G1 X45.283 Y68.449 E5.42935
G1 X44.971 Y68.524 E5.44920
G1 X44.650 Y68.549 E5.46905
G1 X44.329 Y68.524 E5.48890
G1 X44.017 Y68.449 E5.50876
G1 X43.720 Y68.326 E5.52861
G1 X43.445 Y68.158 E5.54846
G1 X43.201 Y67.949 E5.56832
G1 X42.992 Y67.705 E5.58817
G1 X42.824 Y67.430 E5.60802
G1 X42.701 Y67.133 E5.62788
G1 X42.626 Y66.821 E5.64773
G1 X42.601 Y66.500 E5.66758
G1 X42.626 Y66.179 E5.68743
G1 X42.701 Y65.867 E5.70729
G1 X42.824 Y65.570 E5.72714
G1 X42.992 Y65.295 E5.74699
G1 X43.201 Y65.051 E5.76685
G1 X43.445 Y64.842 E5.78670
G1 X43.720 Y64.674 E5.80655
G1 X44.017 Y64.551 E5.82641
G1 X44.329 Y64.476 E5.84626
G1 X44.650 Y64.451 E5.86611
G1 X44.971 Y64.476 E5.88596
G1 X45.283 Y64.551 E5.90582
G1 X45.580 Y64.674 E5.92567
G1 X45.855 Y64.842 E5.94552
G1 X46.099 Y65.051 E5.96537
G1 X46.308 Y65.296 E5.98523
G1 X46.476 Y65.570 E6.00508
G1 X46.649 Y65.987 E6.03297
G1 X81.224 Y65.987 E8.16760
G1 X81.802 Y66.097 E8.20397
G1 X82.019 Y66.308 E8.22266
G1 X82.060 Y66.429 E8.23053
G1 X81.899 Y66.582 F15000.000
G1 X81.495 Y66.500 F15000.000
G1 X46.452 Y66.500 E11.24368 F600.000
M140 S54 ; set bed temperature
G1 F27000.000 E8.24368
G92 E0
G1 Z0.600 F15000.000
; changing layer
G1 X46.201 Y66.500 F15000.000
G1 E3.10000 F27000.000
G1 X46.182 Y66.743 E3.11502 F600.000
G1 X46.125 Y66.979 E3.13005
G1 X46.032 Y67.204 E3.14507
G1 X45.905 Y67.412 E3.16010
G1 X45.747 Y67.597 E3.17512
G1 X45.562 Y67.755 E3.19014
G1 X45.331 Y67.891 E3.20668
G1 X45.129 Y67.975 E3.22017
G1 X44.893 Y68.032 E3.23520
G1 X44.650 Y68.051 E3.25022
G1 X44.407 Y68.032 E3.26525
G1 X44.171 Y67.975 E3.28027
G1 X43.946 Y67.882 E3.29529
G1 X43.739 Y67.755 E3.31032
G1 X43.553 Y67.597 E3.32534
G1 X43.395 Y67.412 E3.34037
G1 X43.268 Y67.204 E3.35539
G1 X43.175 Y66.979 E3.37041
G1 X43.118 Y66.743 E3.38544
G1 X43.099 Y66.500 E3.40046
G1 X43.118 Y66.257 E3.41548
G1 X43.175 Y66.021 E3.43051
G1 X43.268 Y65.796 E3.44553
G1 X43.395 Y65.588 E3.46055
G1 X43.553 Y65.403 E3.47558
G1 X43.739 Y65.245 E3.49061
G1 X43.946 Y65.118 E3.50563
G1 X44.171 Y65.025 E3.52065
G1 X44.407 Y64.968 E3.53567
G1 X44.650 Y64.949 E3.55070
G1 X44.868 Y64.966 E3.56419
G1 X45.129 Y65.025 E3.58073 F600.000
G1 X45.354 Y65.118 E3.59575
G1 X45.562 Y65.245 E3.61078
G1 X45.747 Y65.403 E3.62580
G1 X45.905 Y65.588 E3.64082
G1 X46.032 Y65.796 E3.65585
G1 X46.125 Y66.021 E3.67087
G1 X46.182 Y66.257 E3.68590
G1 X46.195 Y66.425 E3.69629
G1 X44.837 Y64.700 F15000.000
G1 X46.660 Y67.042 F15000.000
G1 X46.702 Y66.500 E3.72983 F600.000
G1 X46.660 Y65.958 E3.76338
G1 X81.214 Y65.958 E5.89670
G1 X81.717 Y66.005 E5.92795
G1 X82.181 Y66.182 E5.95856
G1 X82.344 Y66.334 E5.97234
G1 X82.449 Y66.500 E5.98446
G1 X82.344 Y66.666 E5.99658
G1 X82.181 Y66.818 E6.01036
G1 X81.717 Y66.995 E6.04097
G1 X81.214 Y67.042 E6.07221
G1 X46.735 Y67.042 E8.20091
G1 F27000.000 E5.20091
G92 E0
G1 X82.940 Y66.500 F15000.000
G1 E3.10000 F27000.000
G1 X82.892 Y66.734 E3.11934 F1800.000
G1 X82.733 Y66.988 E3.14354
G1 X82.449 Y67.250 E3.17474
G1 X81.832 Y67.487 E3.22818
G1 X81.237 Y67.542 E3.27649
G1 X46.971 Y67.542 E6.04571
G1 X46.408 Y67.542 E6.08049 F600.000
G1 X46.308 Y67.704 E6.09228
G1 X46.099 Y67.949 E6.11214
G1 X45.855 Y68.158 E6.13199
G1 X45.580 Y68.326 E6.15185
G1 X45.283 Y68.449 E6.17170
G1 X44.971 Y68.524 E6.19155
G1 X44.650 Y68.549 E6.21140
G1 X44.329 Y68.524 E6.23126
G1 X44.017 Y68.449 E6.25111
G1 X43.720 Y68.326 E6.27096
G1 X43.445 Y68.158 E6.29081
G1 X43.201 Y67.949 E6.31067
G1 X42.992 Y67.705 E6.33052
G1 X42.824 Y67.430 E6.35037
G1 X42.701 Y67.133 E6.37023
G1 X42.626 Y66.821 E6.39008
G1 X42.601 Y66.500 E6.40993
G1 X42.626 Y66.179 E6.42979
G1 X42.701 Y65.867 E6.44964
G1 X42.824 Y65.570 E6.46949
G1 X42.992 Y65.296 E6.48934
G1 X43.201 Y65.051 E6.50920
G1 X43.445 Y64.842 E6.52905
G1 X43.720 Y64.674 E6.54890
G1 X44.017 Y64.551 E6.56875
G1 X44.329 Y64.476 E6.58861
G1 X44.650 Y64.451 E6.60846
G1 X44.971 Y64.476 E6.62831
G1 X45.283 Y64.551 E6.64817
G1 X45.580 Y64.674 E6.66802
G1 X45.855 Y64.842 E6.68787
G1 X46.099 Y65.051 E6.70773
G1 X46.308 Y65.296 E6.72758
G1 X46.408 Y65.458 E6.73937
G1 X46.971 Y65.458 E6.77415
G1 X81.237 Y65.458 E9.54337 F1800.000
G1 X81.832 Y65.513 E9.59168
G1 X82.450 Y65.750 E9.64513
G1 X82.733 Y66.012 E9.67632
G1 X82.892 Y66.266 E9.70052
G1 X82.925 Y66.427 E9.71380
G1 X82.105 Y66.579 F15000.000
G1 X81.602 Y66.500 E9.75755 F600.000
G1 X46.953 Y66.500 E12.73682
M106 S255
G1 F27000.000 E9.73682
G92 E0
G1 Z0.900 F15000.000
; changing layer
G1 X82.548 Y66.500 F15000.000
G1 E3.10000 F27000.000
G1 X82.427 Y66.871 E3.12410 F600.000
G1 X82.124 Y67.166 E3.15016
G1 X81.931 Y67.275 E3.16387
G1 X81.280 Y67.398 E3.20478
G1 X71.500 Y67.398 E3.80859
G1 X71.500 Y67.352 E3.81144
G1 X71.268 Y67.257 E3.82692
G1 X71.095 Y67.110 E3.84096
G1 X70.959 Y66.921 E3.85529
G1 X70.897 Y66.786 E3.86445
G1 X70.853 Y66.500 E3.88235
G1 X70.897 Y66.214 E3.90025
G1 X70.959 Y66.079 E3.90941
G1 X71.095 Y65.890 E3.92374
G1 X71.268 Y65.743 E3.93778
G1 X71.500 Y65.648 E3.95326
G1 X71.500 Y65.602 E3.95611
G1 X81.280 Y65.602 E4.55992
G1 X81.931 Y65.725 E4.60083
G1 X82.124 Y65.834 E4.61454
G1 X82.427 Y66.129 E4.64059
G1 X82.525 Y66.429 E4.66008
G1 X82.864 Y66.730 F15000.000
G1 F27000.000 E1.66008
G92 E0
G1 X46.201 Y66.500 F15000.000
G1 E3.10000 F27000.000
G1 X46.182 Y66.743 E3.11502 F600.000
G1 X46.125 Y66.979 E3.13005
G1 X46.032 Y67.204 E3.14507
G1 X45.905 Y67.412 E3.16010
G1 X45.747 Y67.597 E3.17512
G1 X45.562 Y67.755 E3.19014
G1 X45.328 Y67.893 E3.20689
G1 X45.129 Y67.975 E3.22017
G1 X44.893 Y68.032 E3.23520
G1 X44.650 Y68.051 E3.25022
G1 X44.407 Y68.032 E3.26524
G1 X44.171 Y67.975 E3.28027
G1 X43.946 Y67.882 E3.29529
G1 X43.738 Y67.755 E3.31031
G1 X43.553 Y67.597 E3.32534
G1 X43.395 Y67.412 E3.34036
G1 X43.268 Y67.204 E3.35539
G1 X43.175 Y66.979 E3.37041
G1 X43.118 Y66.743 E3.38543
G1 X43.099 Y66.500 E3.40046
G1 X43.118 Y66.257 E3.41548
G1 X43.175 Y66.021 E3.43051
G1 X43.268 Y65.796 E3.44553
G1 X43.395 Y65.588 E3.46055
G1 X43.553 Y65.403 E3.47558
G1 X43.738 Y65.245 E3.49060
G1 X43.946 Y65.118 E3.50563
G1 X44.171 Y65.025 E3.52065
G1 X44.407 Y64.968 E3.53567
G1 X44.650 Y64.949 E3.55070
G1 X44.865 Y64.966 E3.56398
G1 X45.129 Y65.025 E3.58073 F600.000
G1 X45.354 Y65.118 E3.59575
G1 X45.562 Y65.245 E3.61077
G1 X45.747 Y65.403 E3.62580
G1 X45.905 Y65.588 E3.64082
G1 X46.032 Y65.796 E3.65585
G1 X46.125 Y66.021 E3.67087
G1 X46.182 Y66.257 E3.68589
G1 X46.195 Y66.425 E3.69629
G1 X44.832 Y64.697 F15000.000
G1 X46.550 Y65.650 F15000.000
G1 X70.606 Y65.650 E5.18147 F600.000
G1 X70.414 Y66.068 E5.20989
G1 X70.347 Y66.500 E5.23687
G1 X70.413 Y66.932 E5.26384
G1 X70.606 Y67.350 E5.29227
G1 X46.550 Y67.350 E6.77745
G1 X46.677 Y66.821 E6.81104
G1 X46.702 Y66.500 E6.83093
G1 X46.677 Y66.179 E6.85081
G1 X46.568 Y65.723 E6.87977
G1 F27000.000 E3.87977
G92 E0
G1 X83.099 Y65.721 F15000.000
G1 E3.10000 F27000.000
G1 X83.301 Y65.978 E3.12019 F600.000
M106 S255
G1 X83.307 Y65.987 E3.12112 F1800.000
M106 S255
G1 X83.375 Y66.135 E3.13117 F600.000
M106 S255
G1 X83.425 Y66.243 E3.14076 F1800.000
G1 X83.464 Y66.500 E3.16175
G1 X83.425 Y66.757 E3.18274
G1 X83.375 Y66.865 E3.19233
M106 S255
G1 X83.307 Y67.013 E3.20238 F600.000
M106 S255
G1 X83.301 Y67.022 E3.20331 F1800.000
M106 S255
G1 X83.099 Y67.279 E3.22350 F600.000
G1 X83.012 Y67.353 E3.23052
G1 X82.757 Y67.513 E3.24914
G1 X82.384 Y67.681 E3.27440
G1 X81.811 Y67.812 E3.31067
G1 X81.241 Y67.850 E3.34595
G1 X46.183 Y67.850 E5.51036
G1 X46.099 Y67.949 E5.51838
G1 X45.855 Y68.158 E5.53823
G1 X45.580 Y68.326 E5.55809
G1 X45.283 Y68.449 E5.57794
G1 X44.971 Y68.524 E5.59779
G1 X44.650 Y68.549 E5.61765
G1 X44.329 Y68.524 E5.63750
G1 X44.017 Y68.449 E5.65735
G1 X43.720 Y68.326 E5.67721
G1 X43.445 Y68.158 E5.69706
G1 X43.201 Y67.949 E5.71691
G1 X42.992 Y67.705 E5.73676
G1 X42.824 Y67.430 E5.75662
G1 X42.701 Y67.133 E5.77647
G1 X42.626 Y66.821 E5.79632
G1 X42.601 Y66.500 E5.81618
G1 X42.626 Y66.179 E5.83603
G1 X42.701 Y65.867 E5.85588
G1 X42.824 Y65.570 E5.87573
G1 X42.992 Y65.295 E5.89559
G1 X43.201 Y65.051 E5.91544
G1 X43.445 Y64.842 E5.93529
G1 X43.720 Y64.674 E5.95514
G1 X44.017 Y64.551 E5.97500
G1 X44.329 Y64.476 E5.99485
G1 X44.650 Y64.451 E6.01470
G1 X44.971 Y64.476 E6.03456
G1 X45.283 Y64.551 E6.05441
G1 X45.580 Y64.674 E6.07426
G1 X45.855 Y64.842 E6.09412
G1 X46.099 Y65.051 E6.11397
G1 X46.183 Y65.150 E6.12199
G1 X81.241 Y65.150 E8.28640
G1 X81.811 Y65.188 E8.32168
G1 X82.384 Y65.319 E8.35795
G1 X82.757 Y65.487 E8.38321
G1 X83.042 Y65.672 E8.40420
G1 X82.980 Y67.084 F15000.000
G1 F27000.000 E5.40420
G92 E0
G1 X61.413 Y66.953 F15000.000
G1 E3.10000 F27000.000
G1 X61.170 Y66.047 E3.17579 F600.000
G1 F27000.000 E0.17579
G92 E0
G1 X82.592 Y65.679 F15000.000
G1 E3.10000 F27000.000
G1 X82.808 Y66.001 E3.11453 F600.000
G1 X82.923 Y66.217 E3.12371
G1 X82.985 Y66.374 E3.13006
G1 X83.010 Y66.500 E3.13486
G1 X82.985 Y66.625 E3.13966
G1 X82.923 Y66.783 E3.14601
G1 X82.808 Y66.999 E3.15519
G1 X82.592 Y67.321 E3.16972
G1 F27000.000 E0.16972
G92 E0
G1 Z1.200 F15000.000
; changing layer
G1 X46.201 Y66.500 F15000.000
G1 E3.10000 F27000.000
G1 X46.182 Y66.743 E3.11503 F600.000
G1 X46.125 Y66.979 E3.13005
G1 X46.015 Y67.231 E3.14700
G1 X45.905 Y67.412 E3.16007
G1 X45.747 Y67.597 E3.17510
G1 X45.562 Y67.755 E3.19012
G1 X45.354 Y67.882 E3.20515
G1 X45.129 Y67.975 E3.22017
G1 X44.893 Y68.032 E3.23519
G1 X44.650 Y68.051 E3.25022
G1 X44.407 Y68.032 E3.26524
G1 X44.171 Y67.975 E3.28026
G1 X43.946 Y67.882 E3.29529
G1 X43.738 Y67.755 E3.31031
G1 X43.553 Y67.597 E3.32534
G1 X43.395 Y67.412 E3.34036
G1 X43.268 Y67.204 E3.35539
G1 X43.175 Y66.979 E3.37041
G1 X43.118 Y66.743 E3.38543
G1 X43.099 Y66.500 E3.40046
G1 X43.118 Y66.257 E3.41548
G1 X43.175 Y66.021 E3.43050
G1 X43.268 Y65.796 E3.44553
G1 X43.395 Y65.588 E3.46055
G1 X43.553 Y65.403 E3.47558
G1 X43.738 Y65.245 E3.49060
G1 X43.946 Y65.118 E3.50562
G1 X44.171 Y65.025 E3.52065
G1 X44.407 Y64.968 E3.53567
G1 X44.650 Y64.949 E3.55069
G1 X44.861 Y64.966 E3.56377
G1 X45.129 Y65.025 E3.58072 F600.000
G1 X45.354 Y65.118 E3.59574
G1 X45.562 Y65.245 E3.61077
G1 X45.747 Y65.403 E3.62579
G1 X45.905 Y65.588 E3.64082
G1 X46.032 Y65.796 E3.65584
G1 X46.125 Y66.021 E3.67087
G1 X46.182 Y66.257 E3.68589
G1 X46.195 Y66.425 E3.69628
G1 X44.828 Y64.693 F15000.000
G1 X46.425 Y65.438 F15000.000
G1 X70.258 Y65.438 E5.16773 F600.000
G1 X70.092 Y65.753 E5.18971
G1 X70.021 Y65.938 E5.20195
G1 X69.955 Y66.218 E5.21972
G1 X69.933 Y66.500 E5.23718
G1 X69.955 Y66.782 E5.25463
G1 X70.021 Y67.062 E5.27240
G1 X70.092 Y67.247 E5.28464
G1 X70.258 Y67.562 E5.30662
G1 X46.425 Y67.562 E6.77807
G1 X46.602 Y67.134 E6.80665
G1 X46.677 Y66.821 E6.82653
G1 X46.702 Y66.500 E6.84642
G1 X46.677 Y66.179 E6.86630
G1 X46.602 Y65.866 E6.88618
G1 X46.453 Y65.507 E6.91013
G1 F27000.000 E3.91013
G92 E0
G1 X70.434 Y66.500 F15000.000
G1 E3.10000 F27000.000
G1 X70.451 Y66.705 E3.11268 F600.000
G1 X70.500 Y66.915 E3.12600
G1 X70.615 Y67.167 E3.14313
G1 X70.839 Y67.451 E3.16547
G1 X71.042 Y67.610 E3.18138
G1 X71.329 Y67.754 E3.20120
G1 X71.256 Y68.062 E3.22076
G1 X45.967 Y68.062 E4.78212
G1 X45.855 Y68.158 E4.79124
G1 X45.580 Y68.326 E4.81109
G1 X45.283 Y68.449 E4.83095
G1 X44.971 Y68.524 E4.85080
G1 X44.650 Y68.549 E4.87065
G1 X44.329 Y68.524 E4.89050
G1 X44.017 Y68.449 E4.91036
G1 X43.720 Y68.326 E4.93021
G1 X43.445 Y68.158 E4.95006
G1 X43.201 Y67.949 E4.96991
G1 X42.992 Y67.705 E4.98977
G1 X42.824 Y67.430 E5.00962
G1 X42.701 Y67.133 E5.02947
G1 X42.626 Y66.821 E5.04933
G1 X42.601 Y66.500 E5.06918
G1 X42.626 Y66.179 E5.08903
G1 X42.701 Y65.867 E5.10888
G1 X42.824 Y65.570 E5.12874
G1 X42.992 Y65.295 E5.14859
G1 X43.201 Y65.051 E5.16844
