; generated by Slic3r 1.1.7 on 2015-04-20 at 00:03:46

; perimeters extrusion width = 0.50mm
; infill extrusion width = 0.70mm
; solid infill extrusion width = 0.70mm
; top infill extrusion width = 0.70mm

G21 ; set units to millimeters
M107
M190 S57 ; wait for bed temperature to be reached
M104 S190 ; set temperature
G28 ; home all axes
G1 Z5 F5000 ; lift nozzle
M109 S190 ; wait for temperature to be reached
G90 ; use absolute coordinates
G92 E0
M82 ; use absolute distances for extrusion
G1 F27000.000 E-3.00000
G92 E0
G1 Z0.300 F15000.000
; changing layer
G1 X56.093 Y55.723 F15000.000
G1 E3.10000 F27000.000
G1 X56.870 Y55.023 E3.16454 F960.000
G1 X58.561 Y53.795 E3.29361
G1 X59.466 Y53.272 E3.35814
G1 X61.376 Y52.422 E3.48721
G1 X62.370 Y52.099 E3.55174
G1 X64.415 Y51.664 E3.68081
G1 X65.455 Y51.555 E3.74535
G1 X67.545 Y51.555 E3.87442
G1 X68.585 Y51.664 E3.93896
G1 X70.630 Y52.099 E4.06803 F960.000
G1 X71.624 Y52.422 E4.13256
G1 X73.534 Y53.272 E4.26163
G1 X74.439 Y53.795 E4.32616
G1 X76.130 Y55.023 E4.45523
G1 X76.907 Y55.723 E4.51977
G1 X78.306 Y57.277 E4.64884
G1 X78.920 Y58.122 E4.71337
G1 X79.966 Y59.933 E4.84244
G1 X80.391 Y60.888 E4.90698
G1 X80.714 Y61.882 E4.97152
G1 X81.037 Y62.876 E5.03605
G1 X81.254 Y63.898 E5.10059
G1 X81.473 Y65.977 E5.22966
G1 X81.473 Y67.023 E5.29419
G1 X81.254 Y69.102 E5.42326
G1 X81.037 Y70.124 E5.48779
G1 X80.714 Y71.118 E5.55233
G1 X80.391 Y72.112 E5.61686
G1 X79.966 Y73.067 E5.68140
G1 X78.920 Y74.878 E5.81047
G1 X78.306 Y75.723 E5.87500
G1 X76.907 Y77.277 E6.00407
G1 X76.130 Y77.977 E6.06861
G1 X74.439 Y79.205 E6.19768
G1 X73.534 Y79.728 E6.26221
G1 X71.624 Y80.578 E6.39128
G1 X70.630 Y80.901 E6.45582
G1 X68.585 Y81.336 E6.58489
G1 X67.545 Y81.445 E6.64942
G1 X65.455 Y81.445 E6.77849
G1 X64.415 Y81.336 E6.84303
G1 X62.370 Y80.901 E6.97210
G1 X61.376 Y80.578 E7.03663
G1 X59.466 Y79.728 E7.16570
G1 X58.561 Y79.205 E7.23024
G1 X56.870 Y77.977 E7.35931
G1 X56.093 Y77.277 E7.42384
G1 X54.694 Y75.723 E7.55291
G1 X54.080 Y74.878 E7.61745
G1 X53.034 Y73.067 E7.74652
G1 X52.609 Y72.112 E7.81105
G1 X51.963 Y70.124 E7.94012
G1 X51.746 Y69.102 E8.00466
G1 X51.527 Y67.023 E8.13373
G1 X51.527 Y65.977 E8.19826
G1 X51.746 Y63.898 E8.32733
G1 X51.963 Y62.876 E8.39187
G1 X52.609 Y60.888 E8.52094
G1 X53.034 Y59.933 E8.58547
G1 X54.080 Y58.122 E8.71454
G1 X54.694 Y57.277 E8.77908
G1 X56.043 Y55.779 E8.90352
G1 X56.484 Y56.112 F15000.000
G1 X57.164 Y55.428 E8.96304 F960.000
G1 X59.670 Y53.729 E9.14997
G1 X60.625 Y53.304 E9.21451
G1 X62.474 Y52.588 E9.33696
G1 X63.497 Y52.370 E9.40149
G1 X65.455 Y52.055 E9.52394
G1 X68.481 Y52.153 E9.71087
G1 X69.503 Y52.370 E9.77541 F960.000
G1 X71.420 Y52.878 E9.89786
G1 X72.375 Y53.304 E9.96239
G1 X74.145 Y54.199 E10.08484
G1 X76.535 Y56.057 E10.27177
G1 X77.235 Y56.834 E10.33631
G1 X78.487 Y58.372 E10.45875
G1 X79.010 Y59.277 E10.52329
G1 X79.915 Y61.042 E10.64574
G1 X80.238 Y62.036 E10.71028
G1 X80.757 Y63.951 E10.83272
G1 X80.975 Y66.970 E11.01965
G1 X80.561 Y69.970 E11.20659
G1 X80.238 Y70.964 E11.27112
G1 X79.533 Y72.817 E11.39357
G1 X77.934 Y75.389 E11.58050
G1 X77.235 Y76.166 E11.64504
G1 X75.836 Y77.572 E11.76749
G1 X74.991 Y78.186 E11.83202
G1 X73.330 Y79.271 E11.95447
G1 X72.375 Y79.696 E12.01901
G1 X70.526 Y80.412 E12.14145
G1 X69.503 Y80.630 E12.20599
G1 X67.545 Y80.945 E12.32844
G1 X64.519 Y80.847 E12.51537
G1 X63.497 Y80.630 E12.57991
G1 X61.580 Y80.122 E12.70235
G1 X60.625 Y79.696 E12.76689
G1 X58.855 Y78.801 E12.88934
G1 X58.009 Y78.186 E12.95387
G1 X56.465 Y76.943 E13.07632
G1 X55.765 Y76.166 E13.14086
G1 X54.513 Y74.628 E13.26330
G1 X53.085 Y71.958 E13.45024
G1 X52.762 Y70.964 E13.51477
G1 X52.243 Y69.049 E13.63722
G1 X52.025 Y66.030 E13.82415
G1 X52.439 Y63.030 E14.01108
G1 X52.762 Y62.036 E14.07562
G1 X53.467 Y60.183 E14.19807
G1 X53.990 Y59.277 E14.26261
G1 X55.066 Y57.611 E14.38505
G1 X55.765 Y56.834 E14.44959
G1 X56.431 Y56.165 E14.50788
G1 F27000.000 E11.50788
G92 E0
G1 X68.517 Y68.517 F15000.000
G1 E3.10000 F27000.000
G1 X68.177 Y68.808 E3.12763 F720.000
G1 X67.795 Y69.041 E3.15527
G1 X67.381 Y69.213 E3.18289
G1 X66.946 Y69.317 E3.21053
G1 X66.500 Y69.352 E3.23817
G1 X66.054 Y69.317 E3.26580
G1 X65.619 Y69.213 E3.29343
G1 X65.205 Y69.041 E3.32107
G1 X64.766 Y68.759 E3.35331
G1 X64.483 Y68.517 E3.37629
G1 X64.192 Y68.177 E3.40392
G1 X63.959 Y67.795 E3.43155
G1 X63.787 Y67.382 E3.45918
G1 X63.683 Y66.946 E3.48682
G1 X63.648 Y66.500 E3.51445
G1 X63.683 Y66.054 E3.54208
G1 X63.787 Y65.618 E3.56973
G1 X63.959 Y65.205 E3.59735
G1 X64.192 Y64.823 E3.62498
G1 X64.483 Y64.483 E3.65262
G1 X64.823 Y64.193 E3.68024
G1 X65.205 Y63.959 E3.70788
G1 X65.619 Y63.787 E3.73551
G1 X66.054 Y63.683 E3.76314
G1 X66.501 Y63.648 E3.79082
G1 X66.881 Y63.678 E3.81436
G1 X67.381 Y63.787 E3.84599 F720.000
G1 X67.795 Y63.959 E3.87364
G1 X68.177 Y64.192 E3.90127
G1 X68.517 Y64.483 E3.92891
G1 X68.807 Y64.823 E3.95652
G1 X69.041 Y65.205 E3.98417
G1 X69.213 Y65.619 E4.01180
G1 X69.317 Y66.054 E4.03943
G1 X69.352 Y66.500 E4.06707
G1 X69.317 Y66.946 E4.09471
G1 X69.213 Y67.381 E4.12234
G1 X69.041 Y67.795 E4.14997
G1 X68.807 Y68.177 E4.17761
G1 X68.566 Y68.460 E4.20061
G1 X68.162 Y68.162 F15000.000
G1 X67.882 Y68.402 E4.22338 F576.000
G1 X67.567 Y68.595 E4.24615
G1 X67.226 Y68.736 E4.26893
G1 X66.868 Y68.822 E4.29170
G1 X66.500 Y68.851 E4.31448
G1 X66.132 Y68.822 E4.33725
G1 X65.740 Y68.722 E4.36223
G1 X65.433 Y68.595 E4.38278
G1 X65.118 Y68.402 E4.40555
G1 X64.838 Y68.162 E4.42832
G1 X64.598 Y67.882 E4.45110
G1 X64.405 Y67.567 E4.47387
G1 X64.264 Y67.226 E4.49664
G1 X64.178 Y66.868 E4.51942
G1 X64.149 Y66.500 E4.54220
G1 X64.178 Y66.132 E4.56497
G1 X64.264 Y65.774 E4.58775
G1 X64.405 Y65.433 E4.61052
G1 X64.598 Y65.118 E4.63329
G1 X64.838 Y64.838 E4.65607
G1 X65.118 Y64.598 E4.67884
G1 X65.433 Y64.405 E4.70161
G1 X65.774 Y64.264 E4.72439
G1 X66.132 Y64.178 E4.74716
G1 X66.476 Y64.151 E4.76843
G1 X66.868 Y64.178 E4.79270 F576.000
G1 X67.226 Y64.264 E4.81547
G1 X67.567 Y64.405 E4.83824
G1 X67.882 Y64.598 E4.86102
G1 X68.162 Y64.838 E4.88379
G1 X68.402 Y65.118 E4.90656
G1 X68.595 Y65.433 E4.92934
G1 X68.736 Y65.774 E4.95211
G1 X68.822 Y66.132 E4.97489
G1 X68.851 Y66.500 E4.99766
G1 X68.822 Y66.868 E5.02044
G1 X68.736 Y67.226 E5.04321
G1 X68.595 Y67.567 E5.06599
G1 X68.402 Y67.882 E5.08876
G1 X68.211 Y68.105 E5.10690
G1 F27000.000 E2.10690
G92 E0
G1 X66.431 Y63.761 F15000.000
G1 X73.251 Y72.744 F15000.000
G1 E3.10000 F27000.000
G1 X72.687 Y73.371 E3.15207 F720.000
G1 X71.123 Y74.507 E3.27141
G1 X69.357 Y75.293 E3.39075
G1 X67.466 Y75.695 E3.51008
G1 X65.534 Y75.695 E3.62942
G1 X63.643 Y75.293 E3.74875
G1 X61.877 Y74.507 E3.86809
G1 X60.313 Y73.371 E3.98743
G1 X59.020 Y71.935 E4.10676
G1 X58.053 Y70.261 E4.22610
G1 X57.456 Y68.422 E4.34544
G1 X57.254 Y66.500 E4.46477
G1 X57.456 Y64.578 E4.58411
G1 X58.053 Y62.739 E4.70345
G1 X59.020 Y61.065 E4.82278
G1 X60.313 Y59.629 E4.94212
G1 X61.877 Y58.493 E5.06145
G1 X63.643 Y57.707 E5.18079
G1 X65.534 Y57.305 E5.30013
G1 X67.466 Y57.305 E5.41946 F720.000
G1 X69.357 Y57.707 E5.53880
G1 X71.123 Y58.493 E5.65814
G1 X72.687 Y59.629 E5.77747
G1 X73.980 Y61.065 E5.89681
G1 X74.947 Y62.739 E6.01615
G1 X75.544 Y64.578 E6.13548
G1 X75.746 Y66.500 E6.25482
G1 X75.544 Y68.422 E6.37416
G1 X74.947 Y70.261 E6.49349
G1 X73.980 Y71.935 E6.61283
G1 X73.301 Y72.688 E6.67546
G1 X73.623 Y73.079 F15000.000
G1 X73.023 Y73.745 E6.73078 F576.000
G1 X71.374 Y74.943 E6.85660
G1 X69.512 Y75.771 E6.98243
G1 X67.519 Y76.195 E7.10825
G1 X65.481 Y76.195 E7.23408
G1 X63.488 Y75.771 E7.35991
G1 X61.626 Y74.943 E7.48573
G1 X59.977 Y73.745 E7.61156
G1 X58.613 Y72.230 E7.73738
G1 X57.594 Y70.465 E7.86321
G1 X56.964 Y68.527 E7.98903
G1 X56.751 Y66.500 E8.11486
G1 X56.964 Y64.473 E8.24068
G1 X57.279 Y63.504 E8.30360
G1 X57.594 Y62.535 E8.36651
G1 X58.613 Y60.770 E8.49233
G1 X59.977 Y59.255 E8.61816
G1 X61.626 Y58.057 E8.74398
G1 X63.488 Y57.229 E8.86981
G1 X65.481 Y56.805 E8.99564
G1 X67.519 Y56.805 E9.12146
G1 X68.516 Y57.017 E9.18437
G1 X69.512 Y57.229 E9.24729 F576.000
G1 X71.374 Y58.057 E9.37311
G1 X73.023 Y59.255 E9.49894
G1 X74.387 Y60.770 E9.62476
G1 X75.406 Y62.535 E9.75059
G1 X76.036 Y64.473 E9.87641
G1 X76.249 Y66.500 E10.00224
G1 X76.036 Y68.527 E10.12806
G1 X75.406 Y70.465 E10.25389
G1 X74.387 Y72.230 E10.37972
G1 X73.673 Y73.023 E10.44559
G1 F27000.000 E7.44559
G92 E0
G1 X68.944 Y57.274 F15000.000
G1 X69.889 Y58.356 F15000.000
G1 E3.10000 F27000.000
G1 X74.684 Y63.151 E3.64799 F960.000
G1 X75.146 Y64.575 E3.76896
G1 X68.477 Y57.905 E4.53123
G1 X67.292 Y57.682 E4.62862
G1 X75.279 Y65.669 E5.54143
G1 X75.346 Y66.696 E5.62467
G1 X66.331 Y57.682 E6.65494
G1 X65.406 Y57.718 E6.72979
G1 X75.255 Y67.566 E7.85540
G1 X75.148 Y68.420 E7.92498
G1 X64.613 Y57.886 E9.12897
G1 X63.821 Y58.055 E9.19446
G1 X74.912 Y69.146 E10.46210
G1 X74.676 Y69.871 E10.52374
G1 X63.146 Y58.341 E11.84156
G1 X62.481 Y58.637 E11.90039
G1 X67.200 Y63.356 E12.43971
G1 X66.178 Y63.295 E12.52247
G1 X61.857 Y58.974 E13.01631
G1 X61.300 Y59.378 E13.07191
G1 X65.394 Y63.472 E13.53979
G1 X64.754 Y63.793 E13.59767
G1 X60.744 Y59.783 E14.05599
G1 X60.256 Y60.256 E14.11091
G1 X64.216 Y64.216 E14.56344
G1 X63.795 Y64.756 E14.61878
G1 X59.801 Y60.762 E15.07526
G1 X59.346 Y61.268 E15.13025
G1 X63.472 Y65.394 E15.60187
G1 X63.295 Y66.178 E15.66681
G1 X58.989 Y61.873 E16.15885
G1 X58.638 Y62.482 E16.21570
G1 X63.356 Y67.200 E16.75494
G1 F27000.000 E13.75494
G92 E0
G1 X65.795 Y69.639 F15000.000
G1 E3.10000 F27000.000
G1 X70.519 Y74.363 E3.63993 F960.000
G1 X71.143 Y74.026 E3.69725
G1 X66.822 Y69.705 E4.19109
G1 X67.606 Y69.528 E4.25602
G1 X71.700 Y73.622 E4.72391
G1 X72.256 Y73.217 E4.77951
G1 X68.246 Y69.207 E5.23783
G1 X68.784 Y68.784 E5.29315
G1 X72.744 Y72.744 E5.74567
G1 X73.199 Y72.238 E5.80066
G1 X69.207 Y68.246 E6.25690
G1 X69.528 Y67.606 E6.31477
G1 X73.654 Y71.732 E6.78639
G1 X74.011 Y71.127 E6.84312
G1 X69.705 Y66.822 E7.33517
G1 X69.644 Y65.800 E7.41792
G1 X74.362 Y70.518 E7.95715
G1 F27000.000 E4.95715
G92 E0
G1 X69.854 Y74.659 F15000.000
G1 E3.10000 F27000.000
G1 X58.324 Y63.129 E4.41782 F960.000
G1 X58.088 Y63.854 E4.47946
G1 X69.179 Y74.945 E5.74710
G1 X68.387 Y75.114 E5.81259
G1 X57.852 Y64.580 E7.01658
G1 X57.746 Y65.434 E7.08616
G1 X67.594 Y75.282 E8.21177
G1 X66.669 Y75.318 E8.28662
G1 X57.654 Y66.304 E9.31689
G1 X57.721 Y67.331 E9.40013
G1 X65.708 Y75.318 E10.31294
G1 X64.523 Y75.095 E10.41033
G1 X57.854 Y68.425 E11.17259
G1 X58.316 Y69.849 E11.29356
G1 X63.111 Y74.644 E11.84156
G1 X60.671 Y73.165 F15000.000
G1 X60.310 Y72.804 E11.88277 F960.000
G1 F27000.000 E8.88277
G92 E0
G1 X72.690 Y60.196 F15000.000
G1 E3.10000 F27000.000
G1 X72.329 Y59.835 E3.14121 F960.000
M140 S54 ; set bed temperature
G1 F27000.000 E0.14121
G92 E0
G1 Z0.600 F15000.000
; changing layer
G1 X68.162 Y68.162 F15000.000
G1 E3.10000 F27000.000
G1 X67.882 Y68.402 E3.12277 F600.000
G1 X67.567 Y68.595 E3.14555
G1 X67.226 Y68.736 E3.16832
G1 X66.868 Y68.822 E3.19110
G1 X66.500 Y68.851 E3.21387
G1 X66.132 Y68.822 E3.23665
G1 X65.774 Y68.736 E3.25942
G1 X65.433 Y68.595 E3.28219
G1 X65.118 Y68.402 E3.30497
G1 X64.838 Y68.162 E3.32774
G1 X64.598 Y67.882 E3.35052
G1 X64.405 Y67.567 E3.37329
G1 X64.264 Y67.226 E3.39607
G1 X64.178 Y66.868 E3.41884
G1 X64.149 Y66.500 E3.44161
G1 X64.178 Y66.132 E3.46439
G1 X64.264 Y65.774 E3.48716
G1 X64.405 Y65.433 E3.50994
G1 X64.598 Y65.118 E3.53271
G1 X64.838 Y64.838 E3.55549
G1 X65.089 Y64.623 E3.57587
G1 X65.433 Y64.405 E3.60101
G1 X65.774 Y64.264 E3.62378
G1 X66.132 Y64.178 E3.64656
G1 X66.500 Y64.149 E3.66933
G1 X66.829 Y64.175 E3.68972
G1 X67.226 Y64.264 E3.71485 F600.000
G1 X67.567 Y64.405 E3.73763
G1 X67.882 Y64.598 E3.76040
G1 X68.162 Y64.838 E3.78318
G1 X68.402 Y65.118 E3.80595
G1 X68.595 Y65.433 E3.82872
G1 X68.736 Y65.774 E3.85150
G1 X68.822 Y66.132 E3.87427
G1 X68.851 Y66.500 E3.89705
G1 X68.822 Y66.868 E3.91982
G1 X68.736 Y67.226 E3.94260
G1 X68.595 Y67.567 E3.96537
G1 X68.402 Y67.882 E3.98814
G1 X68.211 Y68.105 E4.00629
G1 F27000.000 E1.00629
G92 E0
G1 X66.835 Y63.768 F15000.000
G1 X68.540 Y68.485 F15000.000
G1 E3.10000 F27000.000
G1 X68.175 Y68.805 E3.12999 F600.000
G1 X67.794 Y69.039 E3.15759
G1 X67.380 Y69.210 E3.18520
G1 X66.946 Y69.314 E3.21280
G1 X66.500 Y69.349 E3.24040
G1 X66.054 Y69.314 E3.26801
G1 X65.620 Y69.210 E3.29561
G1 X65.206 Y69.039 E3.32321
G1 X64.825 Y68.805 E3.35082
G1 X64.485 Y68.515 E3.37842
G1 X64.195 Y68.175 E3.40602
G1 X63.961 Y67.794 E3.43363
G1 X63.790 Y67.380 E3.46123
G1 X63.686 Y66.946 E3.48883
G1 X63.651 Y66.500 E3.51644
G1 X63.686 Y66.054 E3.54404
G1 X63.790 Y65.620 E3.57164
G1 X63.961 Y65.206 E3.59925
G1 X64.195 Y64.825 E3.62685
G1 X64.485 Y64.485 E3.65445
G1 X64.825 Y64.195 E3.68206
G1 X65.206 Y63.961 E3.70966
G1 X65.620 Y63.790 E3.73726
G1 X66.054 Y63.686 E3.76487
G1 X66.500 Y63.651 E3.79247
G1 X66.923 Y63.684 E3.81864
G1 X67.380 Y63.790 E3.84766 F600.000
G1 X67.794 Y63.961 E3.87526
G1 X68.175 Y64.195 E3.90287
G1 X68.515 Y64.485 E3.93047
G1 X68.805 Y64.825 E3.95807
G1 X69.039 Y65.206 E3.98568
G1 X69.210 Y65.620 E4.01328
G1 X69.314 Y66.054 E4.04088
G1 X69.349 Y66.500 E4.06849
G1 X69.314 Y66.946 E4.09609
G1 X69.210 Y67.380 E4.12369
G1 X69.039 Y67.794 E4.15129
G1 X68.805 Y68.175 E4.17890
G1 X68.589 Y68.428 E4.19946
G1 F27000.000 E1.19946
G92 E0
G1 X67.325 Y63.927 F15000.000
M106 S255
G1 Z0.900 F15000.000
; changing layer
G1 X68.162 Y68.162 F15000.000
G1 E3.10000 F27000.000
G1 X67.882 Y68.402 E3.12278 F600.000
G1 X67.567 Y68.595 E3.14555
G1 X67.226 Y68.736 E3.16832
G1 X66.868 Y68.822 E3.19110
G1 X66.500 Y68.851 E3.21387
G1 X66.132 Y68.822 E3.23665
G1 X65.774 Y68.736 E3.25942
G1 X65.433 Y68.595 E3.28220
G1 X65.118 Y68.402 E3.30497
G1 X64.838 Y68.162 E3.32775
G1 X64.598 Y67.882 E3.35052
G1 X64.405 Y67.567 E3.37329
G1 X64.264 Y67.226 E3.39607
G1 X64.178 Y66.868 E3.41884
G1 X64.149 Y66.500 E3.44162
G1 X64.178 Y66.132 E3.46439
G1 X64.264 Y65.774 E3.48716
G1 X64.405 Y65.433 E3.50994
G1 X64.598 Y65.118 E3.53271
G1 X64.838 Y64.838 E3.55549
G1 X65.118 Y64.598 E3.57826
G1 X65.433 Y64.405 E3.60104
G1 X65.774 Y64.264 E3.62381
G1 X66.132 Y64.178 E3.64658
G1 X66.500 Y64.149 E3.66936
G1 X66.817 Y64.174 E3.68896
G1 X67.226 Y64.264 E3.71487 F600.000
G1 X67.567 Y64.405 E3.73765
G1 X67.882 Y64.598 E3.76042
G1 X68.162 Y64.838 E3.78320
G1 X68.402 Y65.118 E3.80597
G1 X68.595 Y65.433 E3.82874
G1 X68.736 Y65.774 E3.85152
G1 X68.822 Y66.132 E3.87429
G1 X68.851 Y66.500 E3.89707
G1 X68.822 Y66.868 E3.91984
G1 X68.736 Y67.226 E3.94262
G1 X68.595 Y67.567 E3.96539
G1 X68.402 Y67.882 E3.98816
G1 X68.211 Y68.105 E4.00631
G1 F27000.000 E1.00631
G92 E0
G1 X66.821 Y63.754 F15000.000
G1 X68.540 Y68.485 F15000.000
G1 E3.10000 F27000.000
G1 X68.175 Y68.805 E3.12999 F600.000
G1 X67.794 Y69.039 E3.15760
G1 X67.380 Y69.210 E3.18520
G1 X66.946 Y69.314 E3.21280
G1 X66.500 Y69.349 E3.24041
G1 X66.054 Y69.314 E3.26801
G1 X65.620 Y69.210 E3.29561
G1 X65.206 Y69.039 E3.32322
G1 X64.825 Y68.805 E3.35082
G1 X64.485 Y68.515 E3.37842
G1 X64.195 Y68.175 E3.40603
G1 X63.961 Y67.794 E3.43363
G1 X63.790 Y67.380 E3.46123
G1 X63.686 Y66.946 E3.48884
G1 X63.651 Y66.500 E3.51644
G1 X63.686 Y66.054 E3.54404
G1 X63.790 Y65.620 E3.57165
G1 X63.961 Y65.206 E3.59925
G1 X64.195 Y64.825 E3.62685
G1 X64.485 Y64.485 E3.65445
G1 X64.825 Y64.195 E3.68206
G1 X65.206 Y63.961 E3.70966
G1 X65.620 Y63.790 E3.73726
G1 X66.054 Y63.686 E3.76487
G1 X66.500 Y63.651 E3.79247
G1 X66.837 Y63.677 E3.81334
G1 X66.946 Y63.686 E3.82007 F600.000
G1 X67.380 Y63.790 E3.84768
G1 X67.794 Y63.961 E3.87528
G1 X68.175 Y64.195 E3.90288
G1 X68.515 Y64.485 E3.93049
G1 X68.805 Y64.825 E3.95809
G1 X69.039 Y65.206 E3.98569
G1 X69.210 Y65.620 E4.01330
G1 X69.314 Y66.054 E4.04090
G1 X69.349 Y66.500 E4.06850
G1 X69.314 Y66.946 E4.09611
G1 X69.210 Y67.380 E4.12371
G1 X69.039 Y67.794 E4.15131
G1 X68.805 Y68.175 E4.17892
G1 X68.589 Y68.428 E4.19947
G1 F27000.000 E1.19947
G92 E0
G1 X66.936 Y63.724 F15000.000
G1 Z1.200 F15000.000
; changing layer
G1 X68.162 Y68.162 F15000.000
G1 E3.10000 F27000.000
G1 X67.882 Y68.402 E3.12277 F600.000
G1 X67.567 Y68.595 E3.14555
G1 X67.226 Y68.736 E3.16832
G1 X66.868 Y68.822 E3.19110
