; generated by Slic3r 1.1.7 on 2015-04-14 at 00:18:35

; perimeters extrusion width = 0.50mm
; infill extrusion width = 0.70mm
; solid infill extrusion width = 0.70mm
; top infill extrusion width = 0.70mm

G21 ; set units to millimeters
M107
M190 S57 ; wait for bed temperature to be reached
M104 S190 ; set temperature
G28 ; home all axes
G1 Z5 F5000 ; lift nozzle
M109 S190 ; wait for temperature to be reached
G90 ; use absolute coordinates
G92 E0
M82 ; use absolute distances for extrusion
G1 F27000.000 E-3.00000
G92 E0
G1 Z0.300 F15000.000
; changing layer
G1 X40.598 Y59.567 F15000.000
G1 E3.10000 F27000.000
G1 X41.738 Y58.940 E3.18035 F945.710
G1 X42.963 Y58.500 E3.26070
G1 X44.241 Y58.256 E3.34105
G1 X45.496 Y58.212 E3.41854
G1 X82.687 Y60.826 E5.72035
G1 X83.993 Y61.129 E5.80314 F945.710
G1 X85.926 Y62.298 E5.94259
G1 X86.224 Y62.588 E5.96826
G1 X87.474 Y64.572 E6.11306
G1 X87.585 Y64.901 E6.13450
G1 X87.834 Y66.875 E6.25736
G1 X87.585 Y68.099 E6.33447
G1 X87.474 Y68.428 E6.35591
G1 X86.224 Y70.412 E6.50068
G1 X85.926 Y70.703 E6.52639
G1 X83.993 Y71.871 E6.66581
G1 X83.284 Y72.060 E6.71114
G1 X82.096 Y72.251 E6.78544
G1 X44.758 Y74.785 E9.09597
G1 X43.467 Y74.621 E9.17629
G1 X42.217 Y74.258 E9.25667
G1 X41.039 Y73.704 E9.33701
G1 X39.963 Y72.972 E9.41737
G1 X39.015 Y72.082 E9.49763
G1 X38.217 Y71.053 E9.57802
G1 X37.590 Y69.912 E9.65842
G1 X37.150 Y68.687 E9.73877
G1 X36.906 Y67.409 E9.81908
G1 X36.865 Y66.108 E9.89948
G1 X36.906 Y65.595 E9.93122
G1 X37.029 Y64.817 E9.97988
G1 X37.392 Y63.567 E10.06023
G1 X37.946 Y62.389 E10.14058
G1 X38.215 Y61.951 E10.17234
G1 X38.678 Y61.313 E10.22100
G1 X39.013 Y60.922 E10.25279
G1 X39.569 Y60.365 E10.30140
G1 X40.539 Y59.613 E10.37713
G1 X40.859 Y59.993 F15000.000
G1 X41.930 Y59.402 E10.45263 F945.710
G1 X43.080 Y58.986 E10.52815
G1 X44.281 Y58.755 E10.60365
G1 X45.461 Y58.711 E10.67659
G1 X82.593 Y61.317 E12.97473
G1 X83.838 Y61.604 E13.05358 F945.710
G1 X85.577 Y62.656 E13.17909
G1 X85.875 Y62.946 E13.20476
G1 X87.001 Y64.732 E13.33508
G1 X87.112 Y65.061 E13.35652
G1 X87.327 Y66.935 E13.47301
G1 X87.112 Y67.939 E13.53640
G1 X87.001 Y68.268 E13.55784
G1 X85.875 Y70.054 E13.68814
G1 X85.577 Y70.344 E13.71384
G1 X83.838 Y71.396 E13.83933
G1 X83.190 Y71.569 E13.88071
G1 X82.061 Y71.752 E13.95134
G1 X44.797 Y74.286 E16.25732
G1 X43.584 Y74.135 E16.33280
G1 X42.408 Y73.796 E16.40834
G1 X41.301 Y73.277 E16.48384
G1 X40.288 Y72.592 E16.55935
G1 X39.396 Y71.757 E16.63478
G1 X38.644 Y70.792 E16.71032
G1 X38.052 Y69.720 E16.78588
G1 X37.636 Y68.570 E16.86139
G1 X37.405 Y67.370 E16.93686
G1 X37.364 Y66.147 E17.01241
G1 X37.404 Y65.634 E17.04415
G1 X37.515 Y64.933 E17.08797
G1 X37.854 Y63.758 E17.16349
G1 X38.373 Y62.651 E17.23899
G1 X38.642 Y62.212 E17.27075
G1 X39.058 Y61.638 E17.31456
G1 X39.393 Y61.246 E17.34634
G1 X39.894 Y60.745 E17.39012
G1 X40.800 Y60.039 E17.46101
G1 F27000.000 E14.46101
G92 E0
G1 X46.954 Y68.304 F15000.000
G1 E3.10000 F27000.000
G1 X46.649 Y68.564 E3.12471 F600.000
G1 X46.308 Y68.773 E3.14942
G1 X45.884 Y68.939 E3.17754
G1 X45.549 Y69.019 E3.19881
G1 X45.150 Y69.051 E3.22352
G1 X44.751 Y69.019 E3.24823
G1 X44.362 Y68.926 E3.27295
G1 X43.992 Y68.773 E3.29766
G1 X43.651 Y68.564 E3.32237
G1 X43.346 Y68.304 E3.34708
G1 X43.057 Y67.952 E3.37520
G1 X42.877 Y67.658 E3.39647
G1 X42.724 Y67.288 E3.42118
G1 X42.631 Y66.899 E3.44589
G1 X42.599 Y66.500 E3.47060
G1 X42.631 Y66.101 E3.49532
G1 X42.724 Y65.712 E3.52003
G1 X42.877 Y65.342 E3.54474
G1 X43.086 Y65.001 E3.56945
G1 X43.346 Y64.696 E3.59416
G1 X43.651 Y64.436 E3.61887
G1 X43.992 Y64.227 E3.64359
G1 X44.362 Y64.074 E3.66830
G1 X44.751 Y63.981 E3.69301
G1 X45.150 Y63.949 E3.71772
G1 X45.493 Y63.976 E3.73899
G1 X45.938 Y64.074 E3.76711 F600.000
G1 X46.308 Y64.227 E3.79182
G1 X46.649 Y64.436 E3.81653
G1 X46.954 Y64.696 E3.84124
G1 X47.214 Y65.001 E3.86596
G1 X47.423 Y65.342 E3.89067
G1 X47.576 Y65.712 E3.91538
G1 X47.669 Y66.101 E3.94009
G1 X47.696 Y66.444 E3.96136
G1 X47.669 Y66.899 E3.98948
G1 X47.576 Y67.288 E4.01419
G1 X47.423 Y67.658 E4.03890
G1 X47.214 Y67.999 E4.06361
G1 X47.002 Y68.247 E4.08370
G1 F27000.000 E1.08370
G92 E0
G1 X45.498 Y63.521 F15000.000
G1 X48.153 Y65.987 F15000.000
G1 E3.10000 F27000.000
G1 X81.724 Y65.987 E5.17262 F600.000
G1 X82.302 Y66.097 E5.20899
G1 X82.519 Y66.308 E5.22768
G1 X82.584 Y66.500 E5.24018
G1 X82.519 Y66.692 E5.25269
G1 X82.302 Y66.903 E5.27138
G1 X81.724 Y67.013 E5.30775
G1 X48.153 Y67.013 E7.38037
G1 X48.050 Y67.442 E7.40763
G1 X47.867 Y67.884 E7.43717
G1 X47.617 Y68.292 E7.46671
G1 X47.306 Y68.656 E7.49625
G1 X46.942 Y68.967 E7.52579
G1 X46.534 Y69.217 E7.55533
G1 X46.092 Y69.400 E7.58487
G1 X45.627 Y69.512 E7.61442
G1 X45.150 Y69.549 E7.64395
G1 X44.673 Y69.512 E7.67350
G1 X44.208 Y69.400 E7.70304
G1 X43.766 Y69.217 E7.73258
G1 X43.358 Y68.967 E7.76212
G1 X42.994 Y68.656 E7.79166
G1 X42.683 Y68.292 E7.82120
G1 X42.433 Y67.884 E7.85074
G1 X42.250 Y67.442 E7.88028
G1 X42.138 Y66.977 E7.90982
G1 X42.101 Y66.500 E7.93936
G1 X42.138 Y66.023 E7.96891
G1 X42.250 Y65.558 E7.99845
G1 X42.433 Y65.116 E8.02799
G1 X42.683 Y64.708 E8.05753
G1 X42.994 Y64.344 E8.08707
G1 X43.358 Y64.033 E8.11661
G1 X43.766 Y63.783 E8.14615
G1 X44.208 Y63.600 E8.17569
G1 X44.673 Y63.488 E8.20523
G1 X45.150 Y63.451 E8.23477
G1 X45.627 Y63.488 E8.26431
G1 X46.092 Y63.600 E8.29386
G1 X46.534 Y63.783 E8.32340
G1 X46.942 Y64.033 E8.35294
G1 X47.306 Y64.344 E8.38248
G1 X47.617 Y64.708 E8.41202
G1 X47.867 Y65.116 E8.44156
G1 X48.050 Y65.558 E8.47110
G1 X48.136 Y65.914 E8.49373
G1 X48.192 Y66.486 F15000.000
G1 X47.952 Y66.500 F15000.000
G1 X81.995 Y66.500 E11.42090 F600.000
M140 S54 ; set bed temperature
G1 F27000.000 E8.42090
G92 E0
G1 Z0.600 F15000.000
; changing layer
G1 X47.669 Y66.101 F15000.000
G1 E3.10000 F27000.000
G1 X47.701 Y66.500 E3.12471 F600.000
G1 X47.669 Y66.899 E3.14942
G1 X47.576 Y67.288 E3.17414
G1 X47.423 Y67.658 E3.19885
G1 X47.214 Y67.999 E3.22356
G1 X46.954 Y68.304 E3.24827
G1 X46.649 Y68.564 E3.27298
G1 X46.308 Y68.773 E3.29769
G1 X45.938 Y68.926 E3.32241
G1 X45.549 Y69.019 E3.34712
G1 X45.150 Y69.051 E3.37183
G1 X44.751 Y69.019 E3.39654
G1 X44.362 Y68.926 E3.42125
G1 X43.992 Y68.773 E3.44597
G1 X43.651 Y68.564 E3.47068
G1 X43.346 Y68.304 E3.49539
G1 X43.086 Y67.999 E3.52010
G1 X42.877 Y67.658 E3.54481
G1 X42.724 Y67.288 E3.56953
G1 X42.631 Y66.899 E3.59424
G1 X42.599 Y66.500 E3.61895
G1 X42.631 Y66.101 E3.64366
G1 X42.724 Y65.712 E3.66837
G1 X42.877 Y65.342 E3.69309
G1 X43.086 Y65.001 E3.71780
G1 X43.346 Y64.696 E3.74251
G1 X43.651 Y64.436 E3.76722
G1 X43.992 Y64.227 E3.79193
G1 X44.362 Y64.074 E3.81664
G1 X44.751 Y63.981 E3.84136
G1 X45.150 Y63.949 E3.86607
G1 X45.421 Y63.971 E3.88288
G1 X45.549 Y63.981 E3.89078 F600.000
G1 X45.938 Y64.074 E3.91549
G1 X46.308 Y64.227 E3.94020
G1 X46.649 Y64.436 E3.96492
G1 X46.954 Y64.696 E3.98963
G1 X47.214 Y65.001 E4.01434
G1 X47.423 Y65.342 E4.03905
G1 X47.576 Y65.712 E4.06376
G1 X47.652 Y66.028 E4.08384
G1 F27000.000 E1.08384
G92 E0
G1 X45.390 Y63.846 F15000.000
G1 X48.160 Y65.958 F15000.000
G1 E3.10000 F27000.000
G1 X81.714 Y65.958 E5.17159 F600.000
G1 X82.217 Y66.005 E5.20283
G1 X82.681 Y66.182 E5.23345
G1 X82.844 Y66.334 E5.24722
G1 X82.949 Y66.500 E5.25934
G1 X82.844 Y66.666 E5.27146
G1 X82.681 Y66.818 E5.28524
G1 X82.217 Y66.995 E5.31585
G1 X81.714 Y67.042 E5.34710
G1 X48.160 Y67.042 E7.41868
G1 X48.202 Y66.500 E7.45223
G1 X48.166 Y66.033 E7.48114
G1 X48.160 Y65.458 F15000.000
G1 X48.540 Y65.458 E7.50464 F600.000
G1 X81.737 Y65.458 E10.18744 F1800.000
G1 X82.332 Y65.513 E10.23575
G1 X82.950 Y65.750 E10.28920
G1 X83.233 Y66.012 E10.32039
G1 X83.392 Y66.266 E10.34459
G1 X83.440 Y66.500 E10.36394
G1 X83.392 Y66.734 E10.38327
G1 X83.233 Y66.988 E10.40748
G1 X82.949 Y67.250 E10.43867
G1 X82.332 Y67.487 E10.49212
G1 X81.737 Y67.542 E10.54043
G1 X48.540 Y67.542 E13.22323
G1 X48.009 Y67.542 E13.25604 F600.000
G1 X47.867 Y67.884 E13.27894
G1 X47.617 Y68.292 E13.30848
G1 X47.306 Y68.656 E13.33802
G1 X46.942 Y68.967 E13.36756
G1 X46.534 Y69.217 E13.39711
G1 X46.092 Y69.400 E13.42665
G1 X45.627 Y69.512 E13.45619
G1 X45.150 Y69.549 E13.48573
G1 X44.673 Y69.512 E13.51527
G1 X44.208 Y69.400 E13.54481
G1 X43.766 Y69.217 E13.57435
G1 X43.358 Y68.967 E13.60389
G1 X42.994 Y68.656 E13.63343
G1 X42.683 Y68.292 E13.66297
G1 X42.433 Y67.884 E13.69251
G1 X42.250 Y67.442 E13.72205
G1 X42.138 Y66.977 E13.75160
G1 X42.101 Y66.500 E13.78114
G1 X42.138 Y66.023 E13.81068
G1 X42.250 Y65.558 E13.84022
G1 X42.433 Y65.116 E13.86976
G1 X42.683 Y64.708 E13.89930
G1 X42.994 Y64.344 E13.92884
G1 X43.358 Y64.033 E13.95838
G1 X43.766 Y63.783 E13.98792
G1 X44.208 Y63.600 E14.01746
G1 X44.673 Y63.488 E14.04700
G1 X45.150 Y63.451 E14.07655
G1 X45.627 Y63.488 E14.10609
G1 X46.092 Y63.600 E14.13563
G1 X46.534 Y63.783 E14.16517
G1 X46.942 Y64.033 E14.19471
G1 X47.306 Y64.344 E14.22425
G1 X47.617 Y64.708 E14.25379
G1 X47.867 Y65.116 E14.28333
G1 X48.009 Y65.458 E14.30623
G1 X48.085 Y65.458 E14.31091
G1 X48.088 Y67.329 F15000.000
G1 X48.453 Y66.500 F15000.000
G1 X82.102 Y66.500 E17.20420 F600.000
G1 X82.605 Y66.579 E17.24794
M106 S255
G1 F27000.000 E14.24794
G92 E0
G1 Z0.900 F15000.000
; changing layer
G1 X73.353 Y66.500 F15000.000
G1 E3.10000 F27000.000
G1 X73.397 Y66.214 E3.11790 F600.000
G1 X73.459 Y66.079 E3.12706
G1 X73.595 Y65.890 E3.14139
G1 X73.768 Y65.743 E3.15543
G1 X74.000 Y65.648 E3.17091
G1 X74.000 Y65.602 E3.17376
G1 X81.780 Y65.602 E3.65410
G1 X82.431 Y65.725 E3.69500
G1 X82.624 Y65.834 E3.70871
G1 X82.927 Y66.129 E3.73477
G1 X83.048 Y66.500 E3.75888
G1 X82.927 Y66.871 E3.78298
G1 X82.624 Y67.166 E3.80904
G1 X82.431 Y67.275 E3.82275
G1 X81.780 Y67.398 E3.86365
G1 X74.000 Y67.398 E4.34399
G1 X74.000 Y67.352 E4.34684
G1 X73.768 Y67.257 E4.36232
G1 X73.595 Y67.110 E4.37636
G1 X73.459 Y66.921 E4.39069
G1 X73.397 Y66.786 E4.39985
G1 X73.364 Y66.574 E4.41312
G1 X73.109 Y66.342 F15000.000
G1 F27000.000 E1.41312
G92 E0
G1 X47.701 Y66.500 F15000.000
G1 E3.10000 F27000.000
G1 X47.669 Y66.899 E3.12471 F600.000
G1 X47.576 Y67.288 E3.14942
G1 X47.423 Y67.658 E3.17414
G1 X47.214 Y67.999 E3.19885
G1 X46.954 Y68.304 E3.22356
G1 X46.649 Y68.564 E3.24827
G1 X46.308 Y68.773 E3.27298
G1 X45.938 Y68.926 E3.29769
G1 X45.549 Y69.019 E3.32241
G1 X45.150 Y69.051 E3.34712
G1 X44.751 Y69.019 E3.37183
G1 X44.362 Y68.926 E3.39654
G1 X43.992 Y68.773 E3.42125
G1 X43.651 Y68.564 E3.44597
G1 X43.346 Y68.304 E3.47068
G1 X43.086 Y67.999 E3.49539
G1 X42.877 Y67.658 E3.52010
G1 X42.724 Y67.288 E3.54481
G1 X42.631 Y66.899 E3.56953
G1 X42.599 Y66.500 E3.59424
G1 X42.631 Y66.101 E3.61895
G1 X42.724 Y65.712 E3.64366
G1 X42.877 Y65.342 E3.66837
G1 X43.086 Y65.001 E3.69308
G1 X43.346 Y64.696 E3.71780
G1 X43.651 Y64.436 E3.74251
G1 X43.992 Y64.227 E3.76722
G1 X44.362 Y64.074 E3.79193
G1 X44.751 Y63.981 E3.81664
G1 X45.150 Y63.949 E3.84136
G1 X45.349 Y63.965 E3.85370
G1 X45.549 Y63.981 E3.86607 F600.000
G1 X45.938 Y64.074 E3.89078
G1 X46.308 Y64.227 E3.91549
G1 X46.649 Y64.436 E3.94020
G1 X46.954 Y64.696 E3.96492
G1 X47.214 Y65.001 E3.98963
G1 X47.423 Y65.342 E4.01434
G1 X47.576 Y65.712 E4.03905
G1 X47.669 Y66.101 E4.06376
G1 X47.695 Y66.425 E4.08384
G1 F27000.000 E1.08384
G92 E0
G1 X45.305 Y63.770 F15000.000
G1 X48.075 Y67.350 F15000.000
G1 E3.10000 F27000.000
G1 X48.165 Y66.977 E3.12366 F600.000
G1 X48.202 Y66.500 E3.15323
G1 X48.165 Y66.023 E3.18280
G1 X48.075 Y65.650 E3.20647
G1 X73.106 Y65.650 E4.75183
G1 X72.914 Y66.068 E4.78025
G1 X72.847 Y66.500 E4.80723
G1 X72.913 Y66.932 E4.83420
G1 X73.106 Y67.350 E4.86263
G1 X48.150 Y67.350 E6.40336
G1 F27000.000 E3.40336
G92 E0
G1 X83.599 Y65.721 F15000.000
G1 E3.10000 F27000.000
G1 X83.801 Y65.978 E3.12019 F600.000
M106 S255
G1 X83.807 Y65.987 E3.12112 F1800.000
M106 S255
G1 X83.875 Y66.135 E3.13117 F600.000
M106 S255
G1 X83.925 Y66.243 E3.14076 F1800.000
G1 X83.964 Y66.500 E3.16175
G1 X83.925 Y66.757 E3.18274
G1 X83.875 Y66.865 E3.19233
M106 S255
G1 X83.807 Y67.013 E3.20238 F600.000
M106 S255
G1 X83.801 Y67.022 E3.20331 F1800.000
M106 S255
G1 X83.599 Y67.279 E3.22350 F600.000
G1 X83.512 Y67.353 E3.23052
G1 X83.257 Y67.513 E3.24914
G1 X82.884 Y67.681 E3.27440
G1 X82.311 Y67.812 E3.31067
G1 X81.741 Y67.850 E3.34595
G1 X47.888 Y67.850 E5.43600
G1 X47.617 Y68.292 E5.46801
G1 X47.306 Y68.656 E5.49755
G1 X46.942 Y68.967 E5.52709
G1 X46.534 Y69.217 E5.55664
G1 X46.092 Y69.400 E5.58618
G1 X45.627 Y69.512 E5.61572
G1 X45.150 Y69.549 E5.64526
G1 X44.673 Y69.512 E5.67480
G1 X44.208 Y69.400 E5.70434
G1 X43.766 Y69.217 E5.73388
G1 X43.358 Y68.967 E5.76342
G1 X42.994 Y68.656 E5.79296
G1 X42.683 Y68.292 E5.82250
G1 X42.433 Y67.884 E5.85204
G1 X42.250 Y67.442 E5.88158
G1 X42.138 Y66.977 E5.91113
G1 X42.101 Y66.500 E5.94067
G1 X42.138 Y66.023 E5.97021
G1 X42.250 Y65.558 E5.99975
G1 X42.433 Y65.116 E6.02929
G1 X42.683 Y64.708 E6.05883
G1 X42.994 Y64.344 E6.08837
G1 X43.358 Y64.033 E6.11791
G1 X43.766 Y63.783 E6.14745
G1 X44.208 Y63.600 E6.17699
G1 X44.673 Y63.488 E6.20653
G1 X45.150 Y63.451 E6.23608
G1 X45.627 Y63.488 E6.26562
G1 X46.092 Y63.600 E6.29516
G1 X46.534 Y63.783 E6.32470
G1 X46.942 Y64.033 E6.35424
G1 X47.306 Y64.344 E6.38378
G1 X47.617 Y64.708 E6.41332
G1 X47.888 Y65.150 E6.44534
G1 X81.741 Y65.150 E8.53538
G1 X82.311 Y65.188 E8.57067
G1 X82.884 Y65.319 E8.60693
G1 X83.257 Y65.487 E8.63219
G1 X83.542 Y65.672 E8.65318
G1 X83.480 Y67.084 F15000.000
G1 F27000.000 E5.65318
G92 E0
G1 X72.462 Y66.387 F15000.000
G1 E3.10000 F27000.000
G1 X71.159 Y66.047 E3.20888 F637.169
G1 X70.632 Y66.574 E3.26910
G1 X68.807 Y66.085 E3.42179
G1 X68.797 Y66.047 E3.42497
G1 X69.517 Y66.953 E3.51850
G1 X68.637 Y66.717 E3.59211
G1 X68.402 Y66.953 E3.61905
G1 X66.988 Y66.953 E3.73327
G1 X66.278 Y66.763 E3.79270
G1 X66.086 Y66.047 E3.85257
G1 X63.754 Y66.047 E4.04106
G1 X63.723 Y66.078 E4.04459
G1 X63.608 Y66.047 E4.05423
G1 X63.619 Y66.953 E4.12744
G1 X63.554 Y66.710 E4.14775
G1 X61.729 Y66.221 E4.30045
G1 X61.194 Y66.756 E4.36152
G1 X59.369 Y66.267 E4.51421
G1 X59.310 Y66.047 E4.53258
G1 X59.402 Y66.953 E4.60616
G1 X59.200 Y66.899 E4.62307
G1 X59.146 Y66.953 E4.62926
G1 X56.873 Y66.953 E4.81291
G1 X56.840 Y66.944 E4.81565
G1 X56.645 Y66.214 E4.87673
G1 X56.021 Y66.047 E4.92889
G1 X53.493 Y66.047 E5.13326
G1 X54.285 Y66.260 E5.19959
G1 X54.498 Y66.047 E5.22387
G1 X54.132 Y66.953 E5.30281
G1 X54.116 Y66.892 E5.30793
G1 X52.291 Y66.403 E5.46062
G1 X51.757 Y66.937 E5.52170
G1 X49.932 Y66.448 E5.67439
G1 X49.824 Y66.047 E5.70794
G1 F27000.000 E2.70794
G92 E0
G1 X83.092 Y65.679 F15000.000
G1 E3.10000 F27000.000
G1 X83.308 Y66.001 E3.11453 F600.000
G1 X83.423 Y66.217 E3.12371
G1 X83.485 Y66.374 E3.13006
G1 X83.510 Y66.500 E3.13486
G1 X83.485 Y66.625 E3.13966
G1 X83.423 Y66.783 E3.14601
G1 X83.308 Y66.999 E3.15519
G1 X83.092 Y67.321 E3.16972
G1 F27000.000 E0.16972
G92 E0
G1 Z1.200 F15000.000
; changing layer
G1 X47.701 Y66.500 F15000.000
G1 E3.10000 F27000.000
G1 X47.669 Y66.899 E3.12471 F600.000
G1 X47.576 Y67.288 E3.14942
G1 X47.423 Y67.658 E3.17414
G1 X47.214 Y67.999 E3.19885
G1 X46.954 Y68.304 E3.22356
G1 X46.649 Y68.564 E3.24827
G1 X46.308 Y68.773 E3.27298
G1 X45.938 Y68.926 E3.29769
G1 X45.549 Y69.019 E3.32241
G1 X45.150 Y69.051 E3.34712
G1 X44.751 Y69.019 E3.37183
G1 X44.486 Y68.956 E3.38865
G1 X44.362 Y68.926 E3.39654
G1 X43.992 Y68.773 E3.42125
G1 X43.651 Y68.564 E3.44597
G1 X43.346 Y68.304 E3.47068
G1 X43.086 Y67.999 E3.49539
G1 X42.877 Y67.658 E3.52010
G1 X42.724 Y67.288 E3.54481
G1 X42.631 Y66.899 E3.56953
G1 X42.599 Y66.500 E3.59424
G1 X42.631 Y66.101 E3.61895
G1 X42.724 Y65.712 E3.64366
G1 X42.877 Y65.342 E3.66837
G1 X43.086 Y65.001 E3.69309
G1 X43.346 Y64.696 E3.71780
G1 X43.651 Y64.436 E3.74251
G1 X43.992 Y64.227 E3.76722
G1 X44.362 Y64.074 E3.79193
G1 X44.751 Y63.981 E3.81664
G1 X45.150 Y63.949 E3.84136
G1 X45.277 Y63.959 E3.84925
G1 X45.549 Y63.981 E3.86607 F600.000
G1 X45.938 Y64.074 E3.89078
G1 X46.308 Y64.227 E3.91549
G1 X46.649 Y64.436 E3.94020
G1 X46.954 Y64.696 E3.96492
G1 X47.214 Y65.001 E3.98963
G1 X47.423 Y65.342 E4.01434
G1 X47.576 Y65.712 E4.03905
G1 X47.669 Y66.101 E4.06376
G1 X47.695 Y66.425 E4.08384
G1 F27000.000 E1.08384
G92 E0
