; generated by Slic3r 1.1.7 on 2015-04-13 at 23:18:58

; perimeters extrusion width = 0.50mm
; infill extrusion width = 0.70mm
; solid infill extrusion width = 0.70mm
; top infill extrusion width = 0.70mm

G21 ; set units to millimeters
M107
M190 S57 ; wait for bed temperature to be reached
M104 S190 ; set temperature
G28 ; home all axes
G1 Z5 F5000 ; lift nozzle
M109 S190 ; wait for temperature to be reached
G90 ; use absolute coordinates
G92 E0
M82 ; use absolute distances for extrusion
G1 F27000.000 E-3.00000
G92 E0
G1 Z0.300 F15000.000
; changing layer
G1 X36.464 Y33.932 F15000.000
G1 E3.10000 F27000.000
G1 X36.944 Y33.416 E3.14352 F960.000
G1 X37.450 Y32.952 E3.18591
G1 X38.055 Y32.472 E3.23363
G1 X39.300 Y31.713 E3.32363
G1 X39.941 Y31.420 E3.36714
G1 X40.649 Y31.158 E3.41376
G1 X41.328 Y30.969 E3.45727
G1 X42.068 Y30.821 E3.50384
G1 X42.768 Y30.740 E3.54736
G1 X43.329 Y30.705 E3.58204
G1 X90.184 Y30.735 E6.47483
G1 X91.625 Y30.956 E6.56485 F960.000
G1 X93.015 Y31.400 E6.65492
G1 X94.317 Y32.055 E6.74492
G1 X94.904 Y32.445 E6.78844
G1 X95.501 Y32.907 E6.83503
G1 X96.537 Y33.933 E6.92504
G1 X96.985 Y34.498 E6.96957
G1 X97.400 Y35.109 E7.01517
G1 X97.769 Y35.761 E7.06145
G1 X98.068 Y36.404 E7.10522
G1 X98.525 Y37.789 E7.19527
G1 X98.761 Y39.229 E7.28533
G1 X98.791 Y39.933 E7.32883
G1 X98.768 Y40.679 E7.37494
G1 X92.751 Y93.882 E10.68061
G1 X92.499 Y95.319 E10.77067
G1 X92.026 Y96.698 E10.86066
G1 X91.343 Y97.987 E10.95073
G1 X90.467 Y99.152 E11.04074
G1 X89.419 Y100.166 E11.13078
G1 X88.225 Y101.004 E11.22080
G1 X86.915 Y101.645 E11.31088
G1 X85.521 Y102.073 E11.40087
G1 X84.077 Y102.277 E11.49090
G1 X83.227 Y102.295 E11.54341
G1 X49.676 Y102.293 E13.61484
G1 X48.220 Y102.207 E13.70487
G1 X46.797 Y101.893 E13.79486
G1 X45.395 Y101.338 E13.88792
G1 X44.181 Y100.623 E13.97492
G1 X43.054 Y99.696 E14.06499
G1 X42.088 Y98.608 E14.15484
G1 X41.301 Y97.377 E14.24505
G1 X40.718 Y96.041 E14.33505
G1 X40.351 Y94.629 E14.42509
G1 X40.236 Y93.781 E14.47794
G1 X34.207 Y39.981 E17.82028
G1 X34.237 Y39.277 E17.86379
G1 X34.325 Y38.527 E17.91040
G1 X34.669 Y37.110 E18.00045
G1 X35.230 Y35.765 E18.09043
G1 X35.570 Y35.162 E18.13315
G1 X35.995 Y34.523 E18.18054
G1 X36.417 Y33.991 E18.22248
G1 F27000.000 E15.22248
G92 E0
G1 X45.002 Y41.401 F15000.000
G1 E3.10000 F27000.000
G1 X44.765 Y41.619 E3.11988 F720.000
G1 X44.496 Y41.796 E3.13976
G1 X44.204 Y41.930 E3.15964
G1 X43.893 Y42.017 E3.17953
G1 X43.573 Y42.053 E3.19941
G1 X43.251 Y42.040 E3.21929
G1 X42.936 Y41.976 E3.23918
G1 X42.634 Y41.863 E3.25906
G1 X42.354 Y41.705 E3.27894
G1 X42.101 Y41.504 E3.29883
G1 X41.884 Y41.267 E3.31871
G1 X41.706 Y40.999 E3.33859
G1 X41.572 Y40.706 E3.35847
G1 X41.486 Y40.395 E3.37836
G1 X41.449 Y40.076 E3.39824
G1 X41.463 Y39.754 E3.41812
G1 X41.527 Y39.438 E3.43801
G1 X41.639 Y39.136 E3.45790
G1 X41.798 Y38.856 E3.47777
G1 X41.998 Y38.604 E3.49765
G1 X42.235 Y38.386 E3.51754
G1 X42.504 Y38.208 E3.53742
G1 X42.796 Y38.074 E3.55730
G1 X43.107 Y37.988 E3.57719
G1 X43.427 Y37.951 E3.59706
G1 X43.680 Y37.962 E3.61271
G1 X44.064 Y38.029 E3.63679 F720.000
G1 X44.366 Y38.142 E3.65668
G1 X44.646 Y38.300 E3.67656
G1 X44.898 Y38.500 E3.69644
G1 X45.116 Y38.738 E3.71633
G1 X45.294 Y39.006 E3.73620
G1 X45.428 Y39.299 E3.75608
G1 X45.514 Y39.609 E3.77598
G1 X45.551 Y39.929 E3.79584
G1 X45.537 Y40.251 E3.81574
G1 X45.473 Y40.567 E3.83563
G1 X45.361 Y40.868 E3.85551
G1 X45.202 Y41.149 E3.87538
G1 X45.049 Y41.342 E3.89064
G1 X44.635 Y41.059 F15000.000
G1 X44.456 Y41.224 E3.90566 F576.000
G1 X44.253 Y41.358 E3.92068
G1 X44.032 Y41.459 E3.93571
G1 X43.797 Y41.524 E3.95073
G1 X43.555 Y41.552 E3.96575
G1 X43.312 Y41.542 E3.98078
G1 X43.074 Y41.493 E3.99581
G1 X42.846 Y41.408 E4.01083
G1 X42.634 Y41.289 E4.02585
G1 X42.443 Y41.137 E4.04088
G1 X42.279 Y40.958 E4.05590
G1 X42.144 Y40.755 E4.07092
G1 X42.043 Y40.534 E4.08595
G1 X41.978 Y40.299 E4.10097
G1 X41.950 Y40.058 E4.11599
G1 X41.961 Y39.815 E4.13102
G1 X42.009 Y39.576 E4.14604
G1 X42.094 Y39.348 E4.16107
G1 X42.214 Y39.136 E4.17609
G1 X42.365 Y38.946 E4.19111
G1 X42.544 Y38.781 E4.20614
G1 X42.747 Y38.647 E4.22116
G1 X42.968 Y38.545 E4.23618
G1 X43.203 Y38.480 E4.25121
G1 X43.415 Y38.456 E4.26440
G1 X43.688 Y38.463 E4.28124 F576.000
G1 X43.926 Y38.511 E4.29626
G1 X44.154 Y38.596 E4.31129
G1 X44.366 Y38.716 E4.32631
G1 X44.557 Y38.867 E4.34133
G1 X44.721 Y39.047 E4.35636
G1 X44.856 Y39.249 E4.37138
G1 X44.957 Y39.471 E4.38640
G1 X45.022 Y39.705 E4.40143
G1 X45.050 Y39.947 E4.41645
G1 X45.039 Y40.190 E4.43147
G1 X44.991 Y40.429 E4.44650
G1 X44.906 Y40.657 E4.46152
G1 X44.786 Y40.869 E4.47655
G1 X44.682 Y41.000 E4.48694
G1 F27000.000 E1.48694
G92 E0
G1 X43.373 Y38.187 F15000.000
G1 X46.151 Y45.465 F15000.000
G1 E3.10000 F27000.000
G1 X45.593 Y46.294 E3.16173 F576.000
G1 X41.230 Y43.356 E3.48647
G1 X40.740 Y42.967 E3.52511
G1 X40.310 Y42.499 E3.56435
G1 X39.959 Y41.969 E3.60359
G1 X39.695 Y41.391 E3.64284
G1 X39.524 Y40.778 E3.68208
G1 X39.452 Y40.147 E3.72133
G1 X39.479 Y39.512 E3.76057
G1 X39.605 Y38.889 E3.79982
G1 X39.827 Y38.293 E3.83906
G1 X40.114 Y37.785 E3.87506
G1 X40.535 Y37.242 E3.91751
G1 X41.004 Y36.812 E3.95676
G1 X41.533 Y36.461 E3.99599
G1 X42.112 Y36.197 E4.03524
G1 X42.668 Y36.042 E4.07090
G1 X43.355 Y35.954 E4.11369
G1 X43.991 Y35.981 E4.15293
G1 X44.614 Y36.108 E4.19218
G1 X45.209 Y36.330 E4.23142
G1 X45.754 Y36.638 E4.27006
G1 X49.750 Y39.328 E4.56749
G1 X49.750 Y40.534 E4.64191
G1 X45.212 Y37.478 E4.97971
G1 X44.787 Y37.238 E5.00986
G1 X44.338 Y37.071 E5.03940
G1 X43.869 Y36.976 E5.06894
G1 X43.391 Y36.955 E5.09848
G1 X42.916 Y37.010 E5.12802
G1 X42.427 Y37.150 E5.15941
G1 X42.020 Y37.337 E5.18708
G1 X41.621 Y37.601 E5.21662
G1 X41.268 Y37.925 E5.24616
G1 X40.971 Y38.299 E5.27570
G1 X40.735 Y38.716 E5.30524
G1 X40.568 Y39.164 E5.33479
G1 X40.473 Y39.633 E5.36432
G1 X40.453 Y40.111 E5.39386
G1 X40.507 Y40.587 E5.42341
G1 X40.635 Y41.047 E5.45295
G1 X40.834 Y41.483 E5.48249
G1 X41.099 Y41.881 E5.51203
G1 X41.422 Y42.234 E5.54157
G1 X41.805 Y42.538 E5.57172
G1 X46.089 Y45.423 E5.89061
G1 X46.566 Y45.744 F15000.000
G1 F27000.000 E2.89061
G92 E0
G1 X83.250 Y40.534 F15000.000
G1 E3.10000 F27000.000
G1 X83.250 Y39.328 E3.17443 F576.000
G1 X87.246 Y36.637 E3.47186
G1 X87.791 Y36.330 E3.51050
G1 X88.386 Y36.108 E3.54974
G1 X89.009 Y35.981 E3.58898
G1 X89.645 Y35.954 E3.62823
G1 X90.276 Y36.027 E3.66748
G1 X90.888 Y36.197 E3.70671
G1 X91.467 Y36.461 E3.74596
G1 X91.996 Y36.812 E3.78520
G1 X92.465 Y37.242 E3.82445
G1 X92.860 Y37.740 E3.86369
G1 X93.173 Y38.293 E3.90293
G1 X93.395 Y38.889 E3.94218
G1 X93.521 Y39.512 E3.98142
G1 X93.536 Y39.871 E4.00359
G1 X93.580 Y39.871 E4.00628
G1 X93.476 Y40.778 E4.06270
G1 X93.305 Y41.391 E4.10194
G1 X93.041 Y41.969 E4.14119
G1 X92.690 Y42.499 E4.18043
G1 X92.260 Y42.967 E4.21968
G1 X91.770 Y43.356 E4.25831
G1 X87.407 Y46.294 E4.58305
G1 X86.849 Y45.465 E4.64478
G1 X91.195 Y42.538 E4.96830
G1 X91.578 Y42.234 E4.99845
G1 X91.901 Y41.882 E5.02799
G1 X92.166 Y41.483 E5.05753
G1 X92.365 Y41.047 E5.08707
G1 X92.493 Y40.587 E5.11661
G1 X92.547 Y40.111 E5.14616
G1 X92.527 Y39.633 E5.17570
G1 X92.432 Y39.164 E5.20524
G1 X92.265 Y38.716 E5.23478
G1 X92.029 Y38.299 E5.26432
G1 X91.732 Y37.925 E5.29386
G1 X91.379 Y37.601 E5.32340
G1 X90.980 Y37.337 E5.35294
G1 X90.545 Y37.138 E5.38248
G1 X90.084 Y37.010 E5.41202
G1 X89.609 Y36.955 E5.44157
G1 X89.131 Y36.976 E5.47110
G1 X88.662 Y37.071 E5.50064
G1 X88.214 Y37.238 E5.53019
G1 X87.788 Y37.478 E5.56034
G1 X83.312 Y40.492 E5.89350
G1 X82.760 Y40.632 F15000.000
G1 F27000.000 E2.89350
G92 E0
G1 X87.463 Y40.251 F15000.000
G1 E3.10000 F27000.000
G1 X87.449 Y39.929 E3.11989 F720.000
G1 X87.486 Y39.609 E3.13976
G1 X87.572 Y39.299 E3.15965
G1 X87.706 Y39.006 E3.17954
G1 X87.884 Y38.738 E3.19942
G1 X88.101 Y38.500 E3.21930
G1 X88.354 Y38.300 E3.23919
G1 X88.634 Y38.142 E3.25906
G1 X88.936 Y38.029 E3.27894
G1 X89.251 Y37.965 E3.29883
G1 X89.573 Y37.951 E3.31872
G1 X89.825 Y37.980 E3.33436
G1 X90.203 Y38.074 E3.35844 F720.000
G1 X90.496 Y38.208 E3.37832
G1 X90.765 Y38.386 E3.39820
G1 X91.002 Y38.604 E3.41809
G1 X91.202 Y38.856 E3.43797
G1 X91.361 Y39.136 E3.45785
G1 X91.473 Y39.438 E3.47773
G1 X91.537 Y39.754 E3.49762
G1 X91.551 Y40.076 E3.51750
G1 X91.514 Y40.395 E3.53738
G1 X91.428 Y40.706 E3.55727
G1 X91.294 Y40.999 E3.57715
G1 X91.116 Y41.267 E3.59703
G1 X90.898 Y41.504 E3.61692
G1 X90.646 Y41.705 E3.63680
G1 X90.366 Y41.863 E3.65667
G1 X90.064 Y41.976 E3.67657
G1 X89.749 Y42.040 E3.69644
G1 X89.427 Y42.053 E3.71633
G1 X89.107 Y42.017 E3.73621
G1 X88.796 Y41.930 E3.75610
G1 X88.504 Y41.797 E3.77598
G1 X88.235 Y41.619 E3.79586
G1 X87.998 Y41.401 E3.81575
G1 X87.798 Y41.149 E3.83563
G1 X87.639 Y40.868 E3.85550
G1 X87.527 Y40.567 E3.87539
G1 X87.478 Y40.324 E3.89064
G1 X87.961 Y40.190 F15000.000
G1 X87.950 Y39.947 E3.90567 F576.000
G1 X87.978 Y39.705 E3.92068
G1 X88.043 Y39.471 E3.93571
G1 X88.144 Y39.249 E3.95074
G1 X88.279 Y39.047 E3.96576
G1 X88.443 Y38.867 E3.98078
G1 X88.611 Y38.734 E3.99399
G1 X88.846 Y38.596 E4.01081
G1 X89.074 Y38.511 E4.02583
G1 X89.312 Y38.463 E4.04086
G1 X89.526 Y38.454 E4.05406
G1 X89.797 Y38.480 E4.07088 F576.000
G1 X90.032 Y38.545 E4.08591
G1 X90.253 Y38.647 E4.10093
G1 X90.456 Y38.781 E4.11596
G1 X90.635 Y38.946 E4.13098
G1 X90.786 Y39.136 E4.14601
G1 X90.906 Y39.348 E4.16103
G1 X90.991 Y39.576 E4.17605
G1 X91.039 Y39.815 E4.19108
G1 X91.050 Y40.058 E4.20610
G1 X91.022 Y40.299 E4.22112
G1 X90.957 Y40.534 E4.23615
G1 X90.856 Y40.755 E4.25117
G1 X90.721 Y40.958 E4.26620
G1 X90.557 Y41.137 E4.28122
G1 X90.366 Y41.289 E4.29625
G1 X90.154 Y41.408 E4.31126
G1 X89.926 Y41.493 E4.32629
G1 X89.688 Y41.542 E4.34132
G1 X89.445 Y41.552 E4.35634
G1 X89.203 Y41.524 E4.37136
G1 X88.968 Y41.459 E4.38639
G1 X88.747 Y41.358 E4.40141
G1 X88.544 Y41.224 E4.41644
G1 X88.365 Y41.059 E4.43146
G1 X88.214 Y40.869 E4.44648
G1 X88.094 Y40.657 E4.46150
G1 X88.009 Y40.429 E4.47653
G1 X87.976 Y40.264 E4.48692
G1 X89.602 Y38.192 F15000.000
G1 F27000.000 E1.48692
G92 E0
G1 X77.000 Y60.752 F15000.000
G1 E3.10000 F27000.000
G1 X77.000 Y63.792 E3.28769 F576.000
G1 X56.000 Y63.792 E4.58421
G1 X56.000 Y60.752 E4.77190
G1 X76.925 Y60.752 E6.06379
G1 X77.500 Y60.752 F15000.000
G1 F27000.000 E3.06379
G92 E0
G1 X77.000 Y65.832 F15000.000
G1 E3.10000 F27000.000
G1 X77.000 Y73.752 E3.58897 F576.000
G1 X74.883 Y73.752 E3.71968
G1 X74.707 Y73.546 E3.73645
G1 X74.454 Y73.362 E3.75575
G1 X74.309 Y73.302 E3.76543
G1 X74.000 Y73.253 E3.78473
G1 X73.691 Y73.302 E3.80403
G1 X73.546 Y73.362 E3.81371
G1 X73.293 Y73.546 E3.83301
G1 X73.110 Y73.799 E3.85232
G1 X73.013 Y74.096 E3.87162
G1 X73.001 Y74.252 E3.88130
G1 X73.013 Y74.409 E3.89098
G1 X73.110 Y74.706 E3.91028
G1 X73.293 Y74.959 E3.92958
G1 X73.500 Y75.135 E3.94635
G1 X73.500 Y77.252 E4.07705
G1 X59.500 Y77.252 E4.94140
G1 X59.500 Y75.135 E5.07211
G1 X59.707 Y74.959 E5.08888
G1 X59.890 Y74.706 E5.10818
G1 X59.987 Y74.409 E5.12748
G1 X59.999 Y74.252 E5.13716
G1 X59.987 Y74.096 E5.14684
G1 X59.890 Y73.799 E5.16614
G1 X59.707 Y73.546 E5.18544
G1 X59.454 Y73.362 E5.20474
G1 X59.156 Y73.265 E5.22405
G1 X59.000 Y73.253 E5.23373
G1 X58.691 Y73.302 E5.25303
G1 X58.546 Y73.362 E5.26271
G1 X58.293 Y73.546 E5.28201
G1 X58.117 Y73.752 E5.29878
G1 X56.000 Y73.752 E5.42948
G1 X56.000 Y65.832 E5.91846
G1 X76.925 Y65.832 E7.21035
G1 X77.500 Y65.832 F15000.000
G1 F27000.000 E4.21035
G92 E0
G1 X81.006 Y86.859 F15000.000
G1 E3.10000 F27000.000
G1 X85.549 Y89.509 E3.42475 F576.000
G1 X86.064 Y89.866 E3.46338
G1 X86.523 Y90.306 E3.50262
G1 X86.907 Y90.812 E3.54186
G1 X87.208 Y91.372 E3.58111
G1 X87.418 Y91.972 E3.62035
G1 X87.531 Y92.597 E3.65960
G1 X87.544 Y93.233 E3.69883
G1 X87.458 Y93.863 E3.73808
G1 X87.275 Y94.471 E3.77733
G1 X86.999 Y95.044 E3.81657
G1 X86.636 Y95.566 E3.85582
G1 X86.197 Y96.025 E3.89506
G1 X85.691 Y96.410 E3.93430
G1 X85.131 Y96.710 E3.97355
G1 X84.531 Y96.920 E4.01279
G1 X83.905 Y97.033 E4.05204
G1 X83.270 Y97.047 E4.09127
G1 X82.640 Y96.961 E4.13052
G1 X82.031 Y96.777 E4.16976
G1 X81.467 Y96.505 E4.20841
G1 X79.250 Y95.212 E4.36691
G1 X79.250 Y94.054 E4.43838
G1 X81.955 Y95.632 E4.63169
G1 X82.394 Y95.844 E4.66185
G1 X82.852 Y95.982 E4.69139
G1 X83.327 Y96.047 E4.72093
G1 X83.805 Y96.036 E4.75047
G1 X84.276 Y95.951 E4.78001
G1 X84.728 Y95.794 E4.80955
G1 X85.149 Y95.567 E4.83909
G1 X85.530 Y95.278 E4.86863
G1 X85.861 Y94.932 E4.89817
G1 X86.134 Y94.539 E4.92771
G1 X86.342 Y94.108 E4.95726
G1 X86.480 Y93.650 E4.98680
G1 X86.544 Y93.145 E5.01819
G1 X86.534 Y92.697 E5.04586
G1 X86.449 Y92.227 E5.07540
G1 X86.291 Y91.775 E5.10494
G1 X86.065 Y91.353 E5.13448
G1 X85.775 Y90.972 E5.16402
G1 X85.430 Y90.641 E5.19356
G1 X85.029 Y90.363 E5.22371
G1 X80.502 Y87.722 E5.54723
G1 X80.968 Y86.923 E5.60434
G1 X81.258 Y86.427 F15000.000
G1 F27000.000 E2.60434
G92 E0
G1 X83.792 Y90.953 F15000.000
G1 E3.10000 F27000.000
G1 X84.244 Y91.090 E3.12918 F720.000
G1 X84.534 Y91.230 E3.14906
G1 X84.799 Y91.413 E3.16895
G1 X85.031 Y91.636 E3.18883
G1 X85.226 Y91.892 E3.20872
G1 X85.379 Y92.176 E3.22861
G1 X85.485 Y92.480 E3.24848
G1 X85.542 Y92.797 E3.26837
G1 X85.549 Y93.119 E3.28826
G1 X85.505 Y93.438 E3.30814
G1 X85.413 Y93.746 E3.32801
G1 X85.273 Y94.036 E3.34789
G1 X85.089 Y94.301 E3.36778
G1 X84.866 Y94.534 E3.38766
G1 X84.610 Y94.729 E3.40755
G1 X84.326 Y94.881 E3.42744
G1 X84.022 Y94.987 E3.44731
G1 X83.705 Y95.044 E3.46719
G1 X83.383 Y95.051 E3.48709
G1 X83.064 Y95.008 E3.50697
G1 X82.756 Y94.915 E3.52684
G1 X82.466 Y94.775 E3.54672
G1 X82.201 Y94.591 E3.56661
G1 X81.969 Y94.369 E3.58649
G1 X81.774 Y94.112 E3.60637
G1 X81.621 Y93.828 E3.62627
G1 X81.515 Y93.524 E3.64614
G1 X81.458 Y93.208 E3.66602
G1 X81.451 Y92.886 E3.68591
G1 X81.495 Y92.566 E3.70580
G1 X81.587 Y92.258 E3.72567
G1 X81.727 Y91.968 E3.74555
G1 X81.911 Y91.704 E3.76544
G1 X82.134 Y91.471 E3.78532
G1 X82.390 Y91.276 E3.80521
G1 X83.792 Y90.524 E3.90340
G1 X83.792 Y90.878 E3.92530
G1 X83.721 Y91.472 F15000.000
G1 X84.062 Y91.557 E3.94703 F576.000
G1 X84.281 Y91.663 E3.96205
G1 X84.481 Y91.802 E3.97708
G1 X84.657 Y91.970 E3.99210
G1 X84.804 Y92.164 E4.00713
G1 X84.920 Y92.378 E4.02216
G1 X85.000 Y92.608 E4.03718
G1 X85.043 Y92.847 E4.05220
G1 X85.048 Y93.091 E4.06722
G1 X85.015 Y93.332 E4.08225
G1 X84.945 Y93.565 E4.09727
G1 X84.840 Y93.784 E4.11229
G1 X84.701 Y93.984 E4.12732
G1 X84.532 Y94.159 E4.14234
G1 X84.339 Y94.307 E4.15736
G1 X84.124 Y94.422 E4.17239
G1 X83.895 Y94.502 E4.18741
G1 X83.655 Y94.545 E4.20244
G1 X83.412 Y94.551 E4.21746
G1 X83.171 Y94.518 E4.23249
G1 X82.938 Y94.448 E4.24751
G1 X82.719 Y94.342 E4.26253
G1 X82.519 Y94.203 E4.27755
G1 X82.343 Y94.035 E4.29258
G1 X82.196 Y93.841 E4.30760
G1 X82.080 Y93.627 E4.32263
G1 X82.000 Y93.397 E4.33765
G1 X81.957 Y93.157 E4.35268
G1 X81.952 Y92.914 E4.36770
G1 X81.985 Y92.673 E4.38273
G1 X82.055 Y92.440 E4.39775
G1 X82.160 Y92.221 E4.41277
G1 X82.299 Y92.021 E4.42779
G1 X82.468 Y91.845 E4.44282
G1 X82.661 Y91.698 E4.45784
G1 X83.292 Y91.360 E4.50200 F576.000
G1 X83.292 Y91.460 E4.50823
G1 X83.646 Y91.462 E4.53014
G1 X82.248 Y91.416 F15000.000
G1 F27000.000 E1.53014
G92 E0
G1 X77.250 Y89.852 F15000.000
G1 E3.10000 F27000.000
G1 X78.250 Y89.852 E3.16174 F576.000
G1 X78.250 Y93.852 E3.40870
G1 X68.750 Y93.852 E3.99522
G1 X68.750 Y78.152 E4.96452
G1 X78.250 Y78.152 E5.55104
G1 X78.250 Y87.352 E6.11904
G1 X77.250 Y87.352 E6.18078
G1 X77.250 Y89.777 E6.33050
G1 X77.683 Y89.602 F15000.000
G1 F27000.000 E3.33050
G92 E0
G1 X55.750 Y89.852 F15000.000
G1 E3.10000 F27000.000
G1 X55.750 Y87.352 E3.25435 F576.000
G1 X54.750 Y87.352 E3.31609
G1 X54.750 Y78.152 E3.88409
G1 X68.250 Y78.152 E4.71757
G1 X68.250 Y93.852 E5.68687
G1 X54.750 Y93.852 E6.52035
G1 X54.750 Y89.852 E6.76730
G1 X55.675 Y89.852 E6.82441
G1 X55.500 Y89.419 F15000.000
G1 F27000.000 E3.82441
G92 E0
G1 X51.290 Y92.004 F15000.000
G1 E3.10000 F27000.000
G1 X51.413 Y92.258 E3.11746 F720.000
G1 X51.505 Y92.567 E3.13734
G1 X51.549 Y92.886 E3.15722
G1 X51.542 Y93.208 E3.17711
G1 X51.485 Y93.525 E3.19699
G1 X51.379 Y93.828 E3.21685
G1 X51.226 Y94.112 E3.23675
G1 X51.031 Y94.369 E3.25664
G1 X50.799 Y94.591 E3.27652
