; generated by Slic3r 1.1.7 on 2015-04-13 at 20:38:38

; perimeters extrusion width = 0.50mm
; infill extrusion width = 0.70mm
; solid infill extrusion width = 0.70mm
; top infill extrusion width = 0.70mm

G21 ; set units to millimeters
M107
M190 S57 ; wait for bed temperature to be reached
M104 S190 ; set temperature
G28 ; home all axes
G1 Z5 F5000 ; lift nozzle
M109 S190 ; wait for temperature to be reached
G90 ; use absolute coordinates
G92 E0
M82 ; use absolute distances for extrusion
G1 F27000.000 E-3.00000
G92 E0
G1 Z0.300 F15000.000
; changing layer
G1 X36.465 Y33.931 F15000.000
G1 E3.10000 F27000.000
G1 X36.944 Y33.416 E3.14344 F960.000
G1 X37.448 Y32.953 E3.18569
G1 X38.055 Y32.472 E3.23354
G1 X38.638 Y32.085 E3.27671
G1 X39.300 Y31.713 E3.32361
G1 X40.649 Y31.158 E3.41368
G1 X41.327 Y30.969 E3.45708
G1 X42.068 Y30.821 E3.50376
G1 X43.329 Y30.705 E3.58193
G1 X90.184 Y30.735 E6.47472
G1 X91.625 Y30.956 E6.56474 F960.000
G1 X93.015 Y31.400 E6.65481
G1 X93.654 Y31.692 E6.69821
G1 X94.317 Y32.055 E6.74487
G1 X94.903 Y32.444 E6.78828
G1 X95.501 Y32.907 E6.83498
G1 X96.016 Y33.380 E6.87814
G1 X96.537 Y33.933 E6.92505
G1 X96.985 Y34.497 E6.96950
G1 X97.400 Y35.109 E7.01518
G1 X97.768 Y35.761 E7.06143
G1 X98.068 Y36.404 E7.10523
G1 X98.525 Y37.789 E7.19528
G1 X98.664 Y38.474 E7.23844
G1 X98.761 Y39.229 E7.28540
G1 X98.768 Y40.679 E7.37495
G1 X92.751 Y93.883 E10.68063
G1 X92.499 Y95.319 E10.77066
G1 X92.026 Y96.698 E10.86068
G1 X91.343 Y97.987 E10.95074
G1 X90.467 Y99.152 E11.04075
G1 X89.419 Y100.166 E11.13077
G1 X88.225 Y101.004 E11.22081
G1 X86.915 Y101.645 E11.31090
G1 X85.521 Y102.073 E11.40088
G1 X84.078 Y102.277 E11.49090
G1 X83.227 Y102.295 E11.54342
G1 X49.676 Y102.293 E13.61485
G1 X48.220 Y102.207 E13.70488
G1 X46.797 Y101.893 E13.79487
G1 X45.438 Y101.361 E13.88495
G1 X44.138 Y100.590 E13.97828
G1 X43.054 Y99.696 E14.06499
G1 X42.087 Y98.606 E14.15495
G1 X41.301 Y97.377 E14.24506
G1 X40.718 Y96.040 E14.33507
G1 X40.351 Y94.629 E14.42509
G1 X40.236 Y93.781 E14.47794
G1 X34.207 Y39.981 E17.82029
G1 X34.237 Y39.279 E17.86369
G1 X34.325 Y38.527 E17.91040
G1 X34.669 Y37.110 E18.00046
G1 X35.230 Y35.765 E18.09044
G1 X35.569 Y35.164 E18.13304
G1 X35.995 Y34.523 E18.18055
G1 X36.418 Y33.990 E18.22257
G1 F27000.000 E15.22257
G92 E0
G1 X45.002 Y41.401 F15000.000
G1 E3.10000 F27000.000
G1 X44.765 Y41.619 E3.11988 F720.000
G1 X44.496 Y41.797 E3.13977
G1 X44.204 Y41.930 E3.15964
G1 X43.893 Y42.017 E3.17954
G1 X43.573 Y42.053 E3.19941
G1 X43.251 Y42.040 E3.21930
G1 X42.936 Y41.976 E3.23918
G1 X42.634 Y41.863 E3.25907
G1 X42.354 Y41.705 E3.27894
G1 X42.101 Y41.504 E3.29883
G1 X41.884 Y41.267 E3.31871
G1 X41.706 Y40.999 E3.33860
G1 X41.572 Y40.706 E3.35847
G1 X41.486 Y40.395 E3.37837
G1 X41.449 Y40.076 E3.39824
G1 X41.463 Y39.754 E3.41813
G1 X41.527 Y39.438 E3.43801
G1 X41.639 Y39.136 E3.45789
G1 X41.798 Y38.856 E3.47778
G1 X41.998 Y38.604 E3.49765
G1 X42.235 Y38.386 E3.51754
G1 X42.504 Y38.208 E3.53742
G1 X42.797 Y38.074 E3.55731
G1 X43.107 Y37.988 E3.57719
G1 X43.427 Y37.951 E3.59707
G1 X43.680 Y37.962 E3.61269
G1 X44.064 Y38.029 E3.63679 F720.000
G1 X44.366 Y38.142 E3.65667
G1 X44.646 Y38.300 E3.67656
G1 X44.898 Y38.500 E3.69644
G1 X45.116 Y38.738 E3.71633
G1 X45.294 Y39.006 E3.73620
G1 X45.428 Y39.299 E3.75609
G1 X45.514 Y39.609 E3.77598
G1 X45.551 Y39.929 E3.79586
G1 X45.537 Y40.251 E3.81574
G1 X45.473 Y40.567 E3.83562
G1 X45.361 Y40.868 E3.85551
G1 X45.202 Y41.149 E3.87538
G1 X45.049 Y41.342 E3.89064
G1 X44.635 Y41.059 F15000.000
G1 X44.456 Y41.224 E3.90566 F576.000
G1 X44.253 Y41.358 E3.92069
G1 X44.032 Y41.459 E3.93571
G1 X43.797 Y41.524 E3.95074
G1 X43.555 Y41.552 E3.96576
G1 X43.312 Y41.542 E3.98078
G1 X43.074 Y41.493 E3.99581
G1 X42.846 Y41.408 E4.01083
G1 X42.634 Y41.289 E4.02585
G1 X42.443 Y41.137 E4.04088
G1 X42.279 Y40.958 E4.05590
G1 X42.144 Y40.755 E4.07093
G1 X42.043 Y40.534 E4.08594
G1 X41.978 Y40.299 E4.10098
G1 X41.950 Y40.058 E4.11599
G1 X41.961 Y39.815 E4.13102
G1 X42.009 Y39.576 E4.14604
G1 X42.094 Y39.348 E4.16107
G1 X42.214 Y39.136 E4.17609
G1 X42.365 Y38.946 E4.19111
G1 X42.544 Y38.781 E4.20614
G1 X42.747 Y38.647 E4.22116
G1 X42.968 Y38.545 E4.23619
G1 X43.203 Y38.480 E4.25121
G1 X43.415 Y38.456 E4.26438
G1 X43.688 Y38.463 E4.28124 F576.000
G1 X43.926 Y38.511 E4.29626
G1 X44.154 Y38.596 E4.31129
G1 X44.366 Y38.716 E4.32631
G1 X44.557 Y38.867 E4.34133
G1 X44.721 Y39.047 E4.35636
G1 X44.856 Y39.249 E4.37138
G1 X44.957 Y39.471 E4.38640
G1 X45.022 Y39.705 E4.40143
G1 X45.050 Y39.947 E4.41645
G1 X45.039 Y40.190 E4.43148
G1 X44.991 Y40.429 E4.44650
G1 X44.906 Y40.657 E4.46153
G1 X44.786 Y40.868 E4.47654
G1 X44.682 Y41.000 E4.48694
G1 F27000.000 E1.48694
G92 E0
G1 X43.373 Y38.186 F15000.000
G1 X46.151 Y45.465 F15000.000
G1 E3.10000 F27000.000
G1 X45.593 Y46.294 E3.16173 F576.000
G1 X41.230 Y43.356 E3.48647
G1 X40.740 Y42.967 E3.52510
G1 X40.310 Y42.499 E3.56435
G1 X39.959 Y41.969 E3.60359
G1 X39.695 Y41.391 E3.64284
G1 X39.524 Y40.778 E3.68208
G1 X39.452 Y40.147 E3.72133
G1 X39.479 Y39.512 E3.76057
G1 X39.605 Y38.889 E3.79982
G1 X39.827 Y38.293 E3.83906
G1 X40.114 Y37.786 E3.87499
G1 X40.535 Y37.242 E3.91751
G1 X41.004 Y36.812 E3.95675
G1 X41.533 Y36.461 E3.99600
G1 X42.112 Y36.197 E4.03524
G1 X42.724 Y36.027 E4.07448
G1 X43.355 Y35.954 E4.11373
G1 X43.991 Y35.981 E4.15297
G1 X44.614 Y36.108 E4.19222
G1 X45.209 Y36.330 E4.23146
G1 X45.754 Y36.638 E4.27010
G1 X49.750 Y39.328 E4.56753
G1 X49.750 Y40.534 E4.64195
G1 X45.212 Y37.478 E4.97975
G1 X44.786 Y37.238 E5.00990
G1 X44.338 Y37.071 E5.03944
G1 X43.869 Y36.976 E5.06898
G1 X43.391 Y36.955 E5.09852
G1 X42.916 Y37.010 E5.12806
G1 X42.455 Y37.138 E5.15760
G1 X42.020 Y37.337 E5.18714
G1 X41.621 Y37.601 E5.21668
G1 X41.268 Y37.925 E5.24622
G1 X40.971 Y38.299 E5.27577
G1 X40.735 Y38.716 E5.30531
G1 X40.568 Y39.164 E5.33485
G1 X40.473 Y39.633 E5.36439
G1 X40.453 Y40.111 E5.39393
G1 X40.507 Y40.587 E5.42347
G1 X40.635 Y41.047 E5.45301
G1 X40.834 Y41.483 E5.48255
G1 X41.099 Y41.881 E5.51209
G1 X41.422 Y42.234 E5.54163
G1 X41.805 Y42.538 E5.57178
G1 X46.089 Y45.423 E5.89067
G1 X46.566 Y45.744 F15000.000
G1 F27000.000 E2.89067
G92 E0
G1 X83.250 Y40.534 F15000.000
G1 E3.10000 F27000.000
G1 X83.250 Y39.328 E3.17443 F576.000
G1 X87.246 Y36.637 E3.47186
G1 X87.791 Y36.330 E3.51050
G1 X88.386 Y36.108 E3.54974
G1 X89.009 Y35.981 E3.58898
G1 X89.645 Y35.954 E3.62823
G1 X90.276 Y36.027 E3.66748
G1 X90.888 Y36.197 E3.70671
G1 X91.467 Y36.461 E3.74596
G1 X91.996 Y36.812 E3.78520
G1 X92.465 Y37.242 E3.82445
G1 X92.860 Y37.740 E3.86369
G1 X93.173 Y38.293 E3.90293
G1 X93.395 Y38.889 E3.94218
G1 X93.521 Y39.512 E3.98142
G1 X93.548 Y40.147 E4.02067
G1 X93.476 Y40.778 E4.05991
G1 X93.305 Y41.391 E4.09915
G1 X93.041 Y41.969 E4.13840
G1 X92.690 Y42.499 E4.17764
G1 X92.260 Y42.967 E4.21689
G1 X91.770 Y43.356 E4.25552
G1 X87.407 Y46.294 E4.58026
G1 X86.849 Y45.465 E4.64199
G1 X91.195 Y42.538 E4.96551
G1 X91.578 Y42.234 E4.99566
G1 X91.901 Y41.881 E5.02521
G1 X92.166 Y41.483 E5.05474
G1 X92.365 Y41.047 E5.08428
G1 X92.493 Y40.587 E5.11383
G1 X92.547 Y40.111 E5.14337
G1 X92.527 Y39.633 E5.17291
G1 X92.432 Y39.164 E5.20245
G1 X92.265 Y38.716 E5.23199
G1 X92.029 Y38.299 E5.26153
G1 X91.732 Y37.925 E5.29107
G1 X91.379 Y37.601 E5.32062
G1 X90.980 Y37.337 E5.35015
G1 X90.545 Y37.138 E5.37969
G1 X90.084 Y37.010 E5.40924
G1 X89.609 Y36.955 E5.43878
G1 X89.131 Y36.976 E5.46832
G1 X88.662 Y37.071 E5.49786
G1 X88.214 Y37.238 E5.52740
G1 X87.788 Y37.478 E5.55755
G1 X83.312 Y40.492 E5.89071
G1 X82.760 Y40.632 F15000.000
G1 F27000.000 E2.89071
G92 E0
G1 X87.463 Y40.251 F15000.000
G1 E3.10000 F27000.000
G1 X87.449 Y39.929 E3.11989 F720.000
G1 X87.486 Y39.609 E3.13976
G1 X87.572 Y39.299 E3.15965
G1 X87.706 Y39.006 E3.17953
G1 X87.884 Y38.738 E3.19942
G1 X88.101 Y38.500 E3.21930
G1 X88.354 Y38.300 E3.23918
G1 X88.634 Y38.142 E3.25906
G1 X88.936 Y38.029 E3.27895
G1 X89.251 Y37.965 E3.29883
G1 X89.573 Y37.951 E3.31871
G1 X89.825 Y37.980 E3.33433
G1 X90.204 Y38.074 E3.35844 F720.000
G1 X90.496 Y38.208 E3.37832
G1 X90.765 Y38.386 E3.39820
G1 X91.002 Y38.604 E3.41809
G1 X91.202 Y38.856 E3.43797
G1 X91.361 Y39.136 E3.45785
G1 X91.473 Y39.438 E3.47773
G1 X91.537 Y39.754 E3.49761
G1 X91.551 Y40.076 E3.51750
G1 X91.514 Y40.395 E3.53738
G1 X91.428 Y40.706 E3.55726
G1 X91.294 Y40.999 E3.57715
G1 X91.116 Y41.267 E3.59703
G1 X90.898 Y41.504 E3.61692
G1 X90.586 Y41.739 E3.64102
G1 X90.366 Y41.863 E3.65663
G1 X90.064 Y41.976 E3.67652
G1 X89.749 Y42.040 E3.69640
G1 X89.427 Y42.053 E3.71628
G1 X89.107 Y42.017 E3.73616
G1 X88.797 Y41.930 E3.75605
G1 X88.504 Y41.797 E3.77593
G1 X88.235 Y41.619 E3.79582
G1 X87.998 Y41.401 E3.81570
G1 X87.798 Y41.149 E3.83558
G1 X87.639 Y40.868 E3.85546
G1 X87.527 Y40.566 E3.87535
G1 X87.478 Y40.324 E3.89060
G1 X87.961 Y40.190 F15000.000
G1 X87.950 Y39.947 E3.90562 F576.000
G1 X87.978 Y39.705 E3.92064
G1 X88.043 Y39.471 E3.93567
G1 X88.144 Y39.250 E3.95069
G1 X88.279 Y39.047 E3.96572
G1 X88.443 Y38.867 E3.98074
G1 X88.610 Y38.735 E3.99392
G1 X88.846 Y38.596 E4.01076
G1 X89.074 Y38.511 E4.02579
G1 X89.312 Y38.463 E4.04081
G1 X89.525 Y38.454 E4.05399
G1 X89.797 Y38.480 E4.07084 F576.000
G1 X90.032 Y38.545 E4.08587
G1 X90.253 Y38.647 E4.10089
G1 X90.456 Y38.781 E4.11592
G1 X90.635 Y38.946 E4.13094
G1 X90.786 Y39.136 E4.14596
G1 X90.906 Y39.348 E4.16098
G1 X90.991 Y39.576 E4.17601
G1 X91.039 Y39.815 E4.19103
G1 X91.050 Y40.058 E4.20606
G1 X91.022 Y40.299 E4.22108
G1 X90.957 Y40.534 E4.23610
G1 X90.856 Y40.755 E4.25113
G1 X90.721 Y40.958 E4.26615
G1 X90.557 Y41.137 E4.28117
G1 X90.366 Y41.289 E4.29620
G1 X90.154 Y41.408 E4.31122
G1 X89.926 Y41.493 E4.32625
G1 X89.688 Y41.542 E4.34127
G1 X89.445 Y41.552 E4.35629
G1 X89.203 Y41.524 E4.37132
G1 X88.968 Y41.459 E4.38634
G1 X88.747 Y41.358 E4.40137
G1 X88.544 Y41.224 E4.41639
G1 X88.365 Y41.059 E4.43141
G1 X88.214 Y40.869 E4.44644
G1 X88.094 Y40.657 E4.46146
G1 X88.009 Y40.429 E4.47648
G1 X87.976 Y40.264 E4.48688
G1 X89.602 Y38.192 F15000.000
G1 F27000.000 E1.48688
G92 E0
G1 X74.000 Y48.235 F15000.000
G1 E3.10000 F27000.000
G1 X74.261 Y47.930 E3.12479 F720.000
G1 X74.470 Y47.751 E3.14178
G1 X74.705 Y47.608 E3.15876
G1 X74.958 Y47.502 E3.17573
G1 X75.226 Y47.438 E3.19272
G1 X75.500 Y47.417 E3.20968
G1 X75.774 Y47.438 E3.22665
G1 X76.042 Y47.502 E3.24364
G1 X76.296 Y47.608 E3.26061
G1 X76.530 Y47.751 E3.27759
G1 X76.739 Y47.930 E3.29458
G1 X76.918 Y48.139 E3.31154
G1 X77.061 Y48.373 E3.32852
G1 X77.167 Y48.627 E3.34549
G1 X77.231 Y48.895 E3.36248
G1 X77.250 Y49.140 E3.37763
G1 X77.250 Y65.532 E4.38967
G1 X77.231 Y65.776 E4.40482
G1 X77.167 Y66.044 E4.42180
G1 X77.061 Y66.298 E4.43877
G1 X76.918 Y66.532 E4.45575
G1 X76.739 Y66.741 E4.47273
G1 X76.434 Y67.002 E4.49753
G1 X76.739 Y67.263 E4.52234
G1 X76.918 Y67.472 E4.53931
G1 X77.061 Y67.707 E4.55629
G1 X77.167 Y67.961 E4.57326
G1 X77.231 Y68.228 E4.59025
G1 X77.250 Y68.473 E4.60540
G1 X77.250 Y84.865 E5.61743
G1 X77.231 Y85.110 E5.63259
G1 X77.167 Y85.377 E5.64957
G1 X77.061 Y85.631 E5.66655
G1 X76.918 Y85.866 E5.68352
G1 X76.739 Y86.075 E5.70049
G1 X76.530 Y86.253 E5.71747
G1 X76.295 Y86.397 E5.73445
G1 X76.042 Y86.502 E5.75142
G1 X75.774 Y86.566 E5.76841
G1 X75.500 Y86.588 E5.78538
G1 X75.226 Y86.566 E5.80235
G1 X74.958 Y86.502 E5.81933
G1 X74.705 Y86.397 E5.83630
G1 X74.259 Y86.124 E5.86857
G1 X74.259 Y86.072 E5.87178
G1 X74.000 Y85.769 E5.89637
G1 X73.739 Y86.075 E5.92117
G1 X73.530 Y86.253 E5.93816
G1 X73.295 Y86.397 E5.95513
G1 X73.042 Y86.502 E5.97210
G1 X72.774 Y86.566 E5.98909
G1 X72.500 Y86.588 E6.00606
G1 X72.226 Y86.566 E6.02303
G1 X71.958 Y86.502 E6.04001
G1 X71.705 Y86.397 E6.05699
G1 X71.470 Y86.253 E6.07396
G1 X71.261 Y86.075 E6.09095
G1 X71.000 Y85.769 E6.11574
G1 X70.739 Y86.075 E6.14054
G1 X70.530 Y86.253 E6.15753
G1 X70.295 Y86.397 E6.17450
G1 X70.042 Y86.502 E6.19148
G1 X69.774 Y86.566 E6.20846
G1 X69.500 Y86.588 E6.22543
G1 X69.226 Y86.566 E6.24240
G1 X68.958 Y86.502 E6.25938
G1 X68.705 Y86.397 E6.27636
G1 X68.470 Y86.253 E6.29333
G1 X68.261 Y86.075 E6.31032
G1 X68.000 Y85.769 E6.33512
G1 X67.739 Y86.075 E6.35991
G1 X67.530 Y86.253 E6.37690
G1 X67.295 Y86.397 E6.39388
G1 X67.042 Y86.502 E6.41085
G1 X66.774 Y86.566 E6.42783
G1 X66.500 Y86.588 E6.44480
G1 X66.226 Y86.566 E6.46177
G1 X65.958 Y86.502 E6.47876
G1 X65.705 Y86.397 E6.49573
G1 X65.470 Y86.253 E6.51270
G1 X65.261 Y86.075 E6.52969
G1 X65.000 Y85.769 E6.55449
G1 X64.739 Y86.075 E6.57928
G1 X64.530 Y86.253 E6.59627
G1 X63.248 Y87.038 E6.68904
G1 X63.248 Y86.572 E6.71781
G1 X62.958 Y86.502 E6.73622
G1 X62.705 Y86.397 E6.75319
G1 X62.470 Y86.253 E6.77017
G1 X62.261 Y86.075 E6.78716
G1 X62.000 Y85.769 E6.81195
G1 X61.739 Y86.075 E6.83674
G1 X61.530 Y86.253 E6.85373
G1 X60.248 Y87.038 E6.94650
G1 X60.248 Y86.572 E6.97528
G1 X59.958 Y86.502 E6.99369
G1 X59.705 Y86.397 E7.01066
G1 X59.470 Y86.253 E7.02764
G1 X59.261 Y86.075 E7.04462
G1 X59.000 Y85.769 E7.06942
G1 X58.739 Y86.075 E7.09421
G1 X58.530 Y86.253 E7.11120
G1 X57.248 Y87.038 E7.20397
G1 X57.248 Y86.572 E7.23274
G1 X56.958 Y86.502 E7.25115
G1 X56.705 Y86.397 E7.26812
G1 X56.470 Y86.253 E7.28510
G1 X56.261 Y86.075 E7.30209
G1 X56.082 Y85.866 E7.31905
G1 X55.939 Y85.631 E7.33603
G1 X55.833 Y85.377 E7.35301
G1 X55.769 Y85.110 E7.36999
G1 X55.750 Y84.865 E7.38514
G1 X55.750 Y68.473 E8.39718
G1 X55.769 Y68.228 E8.41233
G1 X55.833 Y67.961 E8.42931
G1 X55.939 Y67.707 E8.44629
G1 X56.082 Y67.472 E8.46326
G1 X56.261 Y67.263 E8.48024
G1 X56.566 Y67.002 E8.50504
G1 X56.261 Y66.741 E8.52985
G1 X56.082 Y66.532 E8.54683
G1 X55.939 Y66.298 E8.56380
G1 X55.833 Y66.044 E8.58078
G1 X55.769 Y65.776 E8.59776
G1 X55.750 Y65.532 E8.61291
G1 X55.750 Y49.140 E9.62495
G1 X55.769 Y48.895 E9.64010
G1 X55.833 Y48.627 E9.65709
G1 X55.939 Y48.373 E9.67406
G1 X56.082 Y48.139 E9.69103
G1 X56.261 Y47.930 E9.70800
G1 X56.470 Y47.751 E9.72499
G1 X56.705 Y47.608 E9.74197
G1 X56.959 Y47.502 E9.75894
G1 X57.226 Y47.438 E9.77592
G1 X57.500 Y47.417 E9.79289
G1 X57.774 Y47.438 E9.80986
G1 X58.042 Y47.502 E9.82684
G1 X58.295 Y47.608 E9.84382
G1 X58.530 Y47.751 E9.86080
G1 X58.739 Y47.930 E9.87778
G1 X59.000 Y48.235 E9.90258
G1 X59.261 Y47.930 E9.92737
G1 X59.470 Y47.751 E9.94436
G1 X59.705 Y47.608 E9.96134
G1 X59.959 Y47.502 E9.97831
G1 X60.226 Y47.438 E9.99529
G1 X60.500 Y47.417 E10.01226
G1 X60.774 Y47.438 E10.02923
G1 X61.042 Y47.502 E10.04622
G1 X61.295 Y47.608 E10.06319
G1 X61.530 Y47.751 E10.08017
G1 X61.739 Y47.930 E10.09715
G1 X62.000 Y48.235 E10.12195
G1 X62.261 Y47.930 E10.14674
G1 X62.470 Y47.751 E10.16373
G1 X62.705 Y47.608 E10.18071
G1 X62.959 Y47.502 E10.19768
G1 X63.226 Y47.438 E10.21466
G1 X63.500 Y47.417 E10.23163
G1 X63.774 Y47.438 E10.24860
G1 X64.042 Y47.502 E10.26559
G1 X64.295 Y47.608 E10.28256
G1 X64.530 Y47.751 E10.29954
G1 X64.739 Y47.930 E10.31652
G1 X65.000 Y48.235 E10.34132
G1 X65.261 Y47.930 E10.36611
G1 X65.470 Y47.751 E10.38310
G1 X65.705 Y47.608 E10.40008
G1 X65.959 Y47.502 E10.41705
G1 X66.226 Y47.438 E10.43403
G1 X66.500 Y47.417 E10.45100
G1 X66.774 Y47.438 E10.46797
G1 X67.042 Y47.502 E10.48496
G1 X67.295 Y47.608 E10.50193
G1 X67.530 Y47.751 E10.51891
G1 X67.739 Y47.930 E10.53589
G1 X68.000 Y48.235 E10.56069
G1 X68.261 Y47.930 E10.58548
G1 X68.470 Y47.751 E10.60247
G1 X68.705 Y47.608 E10.61945
G1 X68.959 Y47.502 E10.63642
G1 X69.226 Y47.438 E10.65341
G1 X69.500 Y47.417 E10.67037
G1 X69.774 Y47.438 E10.68734
G1 X70.042 Y47.502 E10.70433
G1 X70.296 Y47.608 E10.72130
G1 X70.530 Y47.751 E10.73828
G1 X70.739 Y47.930 E10.75527
G1 X71.000 Y48.235 E10.78006
G1 X71.261 Y47.930 E10.80485
G1 X71.470 Y47.751 E10.82184
G1 X71.705 Y47.608 E10.83882
G1 X71.958 Y47.502 E10.85579
G1 X72.226 Y47.438 E10.87278
G1 X72.500 Y47.417 E10.88974
G1 X72.774 Y47.438 E10.90671
G1 X73.042 Y47.502 E10.92370
G1 X73.296 Y47.608 E10.94067
G1 X73.530 Y47.751 E10.95765
G1 X73.739 Y47.930 E10.97464
G1 X73.951 Y48.178 E10.99480
G1 X74.443 Y48.507 F15000.000
G1 X74.616 Y48.285 E11.01217 F576.000
G1 X74.765 Y48.157 E11.02429
G1 X74.932 Y48.055 E11.03641
G1 X75.113 Y47.979 E11.04852
G1 X75.304 Y47.934 E11.06064
G1 X75.465 Y47.921 E11.07058
G1 X75.696 Y47.934 E11.08485 F576.000
